!!!!SEGMENT: pl-cz--iii-114--001_dankowski-adalbert--vesperae-d-dixit-dominus.krn
!!!cenid: 18xx:806
!!!COM: Dankowski, Adalbert
!!!COM-rismID: pe30000793
!!!CDT: ~1760-~1836
!!!CNT: Polish
!!!OPR: Vesperae D
!!!OTL: Dixit Dominus
!!!OMV: 001
!!!PDT:
!!!AGN: Sacred; Vespers
!!!SMS-siglum: PL-CZ
!!!SMS-shelfmark: III-114
!!!SMS-shelfwork: 001-001 M
!!!SMS-variant:
!!!SMS-altvar:
!!!NIFC-rismSourceID: 300000113
!!!NIFC-rismChildID: 300000113
!!!NIFC-islandoraID: pl-cz:34509
!!!URL-pdf-islandora: https://repozytorium.nifc.pl/islandora/object/pl-cz%3A34509/datastream/PDF/view
!!!URL-scan:
!!!ONB-nifc: UWAGA: części Vesperae: Dixit Dominus, Juravit Dominus, Judicabit, Gloria, Laudate pueri, Laetatus sum, Nisi Dominus, Lauda Jerusalem, Magnificat, Et misericordia, Gloria. Uwaga: brak partii vl 1, fl 1 i 2
!!!AIN: 1 alto 1 bass 2 cor 2 flt 1 organ 1 soprn 1 tenor 2 violn
!!!key: D
**kern	**fba	**dynam	**kern	**dynam	**kern	**kern	**text	**kern	**text	**kern	**text	**kern	**text	**kern	**dynam	**kern	**dynam	**kern	**kern
*part11	*	*part11	*part10	*part10	*part9	*part8	*part8	*part7	*part7	*part6	*part6	*part5	*part5	*part4	*part4	*part3	*part3	*part2	*part1
*group5	*	*	*group4	*	*group4	*group3	*group3	*group3	*group3	*group3	*group3	*group3	*group3	*group2	*	*group2	*	*group1	*group1
*staff11	*	*	*staff10	*	*staff9	*staff8	*staff8	*staff7	*staff7	*staff6	*staff6	*staff5	*staff5	*staff4	*	*staff3	*	*staff2	*staff1
*I"Organo	*	*	*I"Violino Secondo	*	*I"Violino Primo	*I"Baſso	*	*I"Tenore	*	*I"Alto	*	*I"Canto	*	*I"Cornu Secondo Ex D:	*	*I"Cornu Primo Ex D:	*	*I"Flauto Secondo.	*I"Flauto Primo.
*I'org	*	*	*I'vl 2	*	*I'vl 1	*I'B	*	*I'T	*	*I'A	*	*I'S	*	*I'cor 2	*	*I'cor 1	*	*I'fl 2	*I'fl 1
*Iorgan	*	*	*Ivioln	*	*Ivioln	*Ibass	*	*Itenor	*	*Ialto	*	*Isoprn	*	*Icor	*	*Icor	*	*Iflt	*Iflt
*ICklav	*	*	*ICstr	*	*ICstr	*ICvox	*	*ICvox	*	*ICvox	*	*ICvox	*	*ICbras	*	*ICbras	*	*ICww	*ICww
*clefF4	*	*	*clefG2	*	*clefG2	*clefF4	*	*clefC4	*	*clefC3	*	*clefC1	*	*clefG2	*	*clefG2	*	*clefG2	*clefG2
*	*	*	*	*	*	*	*	*	*	*	*	*	*	*ITrd-1c-2	*	*ITrd-1c-2	*	*	*
*k[f#c#]	*	*	*k[f#c#]	*	*k[f#c#]	*k[f#c#]	*	*k[c#f#]	*	*k[f#c#]	*	*k[f#c#]	*	*k[f#c#]	*	*k[f#c#]	*	*k[f#c#]	*k[f#c#]
*D:	*	*	*D:	*	*D:	*D:	*	*D:	*	*D:	*	*D:	*	*	*	*	*	*D:	*D:
*M4/4	*	*	*M4/4	*	*M4/4	*M4/4	*	*M4/4	*	*M4/4	*	*M4/4	*	*M4/4	*	*M4/4	*	*M4/4	*M4/4
*met(c)	*	*	*met(c)	*	*met(c)	*met(c)	*	*met(c)	*	*met(c)	*	*met(c)	*	*met(c)	*	*met(c)	*	*met(c)	*met(c)
=1	=1	=1	=1	=1	=1	=1	=1	=1	=1	=1	=1	=1	=1	=1	=1	=1	=1	=1	=1
*2\right	*	*2\right	*2\right	*2\right	*2\right	*2\right	*2\right	*2\right	*2\right	*2\right	*2\right	*2\right	*2\right	*2\right	*2\right	*2\right	*2\right	*2\right	*2\right
!!LO:TX:t=P:problem:metrum C.:global
!	!	!	!	!	!	!	!	!	!	!	!	!LO:TX:t=P:znaki:problem= cc# zamiast c#	!	!	!	!	!	!	!
!LO:TX:a:i:t=Adagio Majeſtoso	!	!	!	!	!LO:TX:a:t=P:problem=brak partii w źródle	!	!	!	!	!	!	!LO:TX:b:t=P:8:problem=dopisane ołówkiem	!	!	!	!	!	!LO:TX:a:t=P:problem=brak partii w źródle	!LO:TX:a:t=P:problem=brak partii w źródle
!LO:TX:a:i:t=Solo&colon;	!	!	!LO:TX:t=Andante Majeſtoso	!LO:DY:a:Bi:t=p&colon;	!	!LO:TX:t=Adagio Majeſtoso	!	!LO:TX:t=Adagio Majeſtoso	!	!LO:TX:t=Adagio Majeſtoso	!	!LO:TX:t=Adagio Majeſtoso	!	!LO:TX:t=Andan&colon; Majeſtoso	!	!LO:TX:t=Andan&colon; Majeſtoso	!	!	!
00r	.	.	(16d/LL	p	1ryy	00r	.	00r	.	00r	.	00r	.	00r	.	00r	.	1ryy	1ryy
.	.	.	16f#/)	.	.	.	.	.	.	.	.	.	.	.	.	.	.	.	.
.	.	.	(16d/	.	.	.	.	.	.	.	.	.	.	.	.	.	.	.	.
.	.	.	16f#/JJ)	.	.	.	.	.	.	.	.	.	.	.	.	.	.	.	.
.	.	.	(16d/LL	.	.	.	.	.	.	.	.	.	.	.	.	.	.	.	.
.	.	.	16f#/)	.	.	.	.	.	.	.	.	.	.	.	.	.	.	.	.
.	.	.	(16d/	.	.	.	.	.	.	.	.	.	.	.	.	.	.	.	.
.	.	.	16f#/JJ)	.	.	.	.	.	.	.	.	.	.	.	.	.	.	.	.
.	.	.	(16e/LL	.	.	.	.	.	.	.	.	.	.	.	.	.	.	.	.
.	.	.	16g/)	.	.	.	.	.	.	.	.	.	.	.	.	.	.	.	.
.	.	.	(16e/	.	.	.	.	.	.	.	.	.	.	.	.	.	.	.	.
.	.	.	16g/JJ)	.	.	.	.	.	.	.	.	.	.	.	.	.	.	.	.
.	.	.	(16e/LL	.	.	.	.	.	.	.	.	.	.	.	.	.	.	.	.
.	.	.	16g/)	.	.	.	.	.	.	.	.	.	.	.	.	.	.	.	.
.	.	.	(16e/	.	.	.	.	.	.	.	.	.	.	.	.	.	.	.	.
.	.	.	16g/JJ)	.	.	.	.	.	.	.	.	.	.	.	.	.	.	.	.
=2	=2	=2	=2	=2	=2	=2	=2	=2	=2	=2	=2	=2	=2	=2	=2	=2	=2	=2	=2
.	.	.	(16e/LL	.	1ryy	.	.	.	.	.	.	.	.	.	.	.	.	1ryy	1ryy
.	.	.	16g/)	.	.	.	.	.	.	.	.	.	.	.	.	.	.	.	.
.	.	.	(16e/	.	.	.	.	.	.	.	.	.	.	.	.	.	.	.	.
.	.	.	16g/JJ)	.	.	.	.	.	.	.	.	.	.	.	.	.	.	.	.
.	.	.	(16e/LL	.	.	.	.	.	.	.	.	.	.	.	.	.	.	.	.
.	.	.	16g/)	.	.	.	.	.	.	.	.	.	.	.	.	.	.	.	.
.	.	.	(16e/	.	.	.	.	.	.	.	.	.	.	.	.	.	.	.	.
.	.	.	16g/JJ)	.	.	.	.	.	.	.	.	.	.	.	.	.	.	.	.
*	*	*	*tremolo	*	*	*	*	*	*	*	*	*	*	*	*	*	*	*	*
.	.	.	16f#/LL	.	.	.	.	.	.	.	.	.	.	.	.	.	.	.	.
.	.	.	16a/	.	.	.	.	.	.	.	.	.	.	.	.	.	.	.	.
.	.	.	16f#/	.	.	.	.	.	.	.	.	.	.	.	.	.	.	.	.
.	.	.	16a/	.	.	.	.	.	.	.	.	.	.	.	.	.	.	.	.
.	.	.	16f#/	.	.	.	.	.	.	.	.	.	.	.	.	.	.	.	.
.	.	.	16a/	.	.	.	.	.	.	.	.	.	.	.	.	.	.	.	.
.	.	.	16f#/	.	.	.	.	.	.	.	.	.	.	.	.	.	.	.	.
.	.	.	16a/JJ	.	.	.	.	.	.	.	.	.	.	.	.	.	.	.	.
=3	=3	=3	=3	=3	=3	=3	=3	=3	=3	=3	=3	=3	=3	=3	=3	=3	=3	=3	=3
.	.	.	16f#/LL	.	1ryy	.	.	.	.	.	.	.	.	.	.	.	.	1ryy	1ryy
.	.	.	16a/	.	.	.	.	.	.	.	.	.	.	.	.	.	.	.	.
.	.	.	16f#	.	.	.	.	.	.	.	.	.	.	.	.	.	.	.	.
.	.	.	16a/	.	.	.	.	.	.	.	.	.	.	.	.	.	.	.	.
.	.	.	16f#	.	.	.	.	.	.	.	.	.	.	.	.	.	.	.	.
.	.	.	16a/	.	.	.	.	.	.	.	.	.	.	.	.	.	.	.	.
.	.	.	16f#	.	.	.	.	.	.	.	.	.	.	.	.	.	.	.	.
.	.	.	16a/JJ	.	.	.	.	.	.	.	.	.	.	.	.	.	.	.	.
.	.	.	16g/LL	.	.	.	.	.	.	.	.	.	.	.	.	.	.	.	.
.	.	.	16b/	.	.	.	.	.	.	.	.	.	.	.	.	.	.	.	.
.	.	.	16g/	.	.	.	.	.	.	.	.	.	.	.	.	.	.	.	.
.	.	.	16b/	.	.	.	.	.	.	.	.	.	.	.	.	.	.	.	.
.	.	.	16g/	.	.	.	.	.	.	.	.	.	.	.	.	.	.	.	.
.	.	.	16b/	.	.	.	.	.	.	.	.	.	.	.	.	.	.	.	.
.	.	.	16g/	.	.	.	.	.	.	.	.	.	.	.	.	.	.	.	.
.	.	.	16b/JJ	.	.	.	.	.	.	.	.	.	.	.	.	.	.	.	.
=4	=4	=4	=4	=4	=4	=4	=4	=4	=4	=4	=4	=4	=4	=4	=4	=4	=4	=4	=4
.	.	.	16e/LL	.	1ryy	.	.	.	.	.	.	.	.	.	.	.	.	1ryy	1ryy
.	.	.	16a/	.	.	.	.	.	.	.	.	.	.	.	.	.	.	.	.
.	.	.	16e/	.	.	.	.	.	.	.	.	.	.	.	.	.	.	.	.
.	.	.	16a/	.	.	.	.	.	.	.	.	.	.	.	.	.	.	.	.
.	.	.	16e/	.	.	.	.	.	.	.	.	.	.	.	.	.	.	.	.
.	.	.	16a/	.	.	.	.	.	.	.	.	.	.	.	.	.	.	.	.
.	.	.	16e/	.	.	.	.	.	.	.	.	.	.	.	.	.	.	.	.
.	.	.	16a/JJ	.	.	.	.	.	.	.	.	.	.	.	.	.	.	.	.
*	*	*	*Xtremolo	*	*	*	*	*	*	*	*	*	*	*	*	*	*	*	*
!	!	!	!LO:LB:g=original	!	!	!	!	!	!	!	!	!	!	!	!	!	!	!	!
.	.	.	16f#/LL	.	.	.	.	.	.	.	.	.	.	.	.	.	.	.	.
.	.	.	16d/	.	.	.	.	.	.	.	.	.	.	.	.	.	.	.	.
.	.	.	16f#/	.	.	.	.	.	.	.	.	.	.	.	.	.	.	.	.
.	.	.	16d/JJ	.	.	.	.	.	.	.	.	.	.	.	.	.	.	.	.
.	.	.	16f#/LL	.	.	.	.	.	.	.	.	.	.	.	.	.	.	.	.
.	.	.	16d/	.	.	.	.	.	.	.	.	.	.	.	.	.	.	.	.
.	.	.	16f#/	.	.	.	.	.	.	.	.	.	.	.	.	.	.	.	.
.	.	.	16d/JJ	.	.	.	.	.	.	.	.	.	.	.	.	.	.	.	.
=5	=5	=5	=5	=5	=5	=5	=5	=5	=5	=5	=5	=5	=5	=5	=5	=5	=5	=5	=5
!	!	!	!	!LO:DY:a:Bi:t=f.	!	!	!	!	!	!	!	!	!	!	!	!	!	!	!
16c#\LL	6 5	.	(16gg\LL	f	1ryy	00r	.	00r	.	00r	.	00r	.	0r	.	0r	.	1ryy	1ryy
16d\	.	.	16ff#\JJ)	.	.	.	.	.	.	.	.	.	.	.	.	.	.	.	.
16c#\	6 5	.	16r	.	.	.	.	.	.	.	.	.	.	.	.	.	.	.	.
16d\JJ	.	.	16ff#\	.	.	.	.	.	.	.	.	.	.	.	.	.	.	.	.
8D\	.	.	(16aa\LL	.	.	.	.	.	.	.	.	.	.	.	.	.	.	.	.
.	.	.	16ff#\)	.	.	.	.	.	.	.	.	.	.	.	.	.	.	.	.
8r	.	.	(16ee\	.	.	.	.	.	.	.	.	.	.	.	.	.	.	.	.
.	.	.	16dd\JJ)	.	.	.	.	.	.	.	.	.	.	.	.	.	.	.	.
16c#\LL	6 5	.	(16cc#\LL	.	.	.	.	.	.	.	.	.	.	.	.	.	.	.	.
16d\	.	.	16dd\JJ)	.	.	.	.	.	.	.	.	.	.	.	.	.	.	.	.
16c#\	6 5	.	16r	.	.	.	.	.	.	.	.	.	.	.	.	.	.	.	.
16d\JJ	.	.	16f#/	.	.	.	.	.	.	.	.	.	.	.	.	.	.	.	.
8D\	.	.	(16a/LL	.	.	.	.	.	.	.	.	.	.	.	.	.	.	.	.
.	.	.	16f#/)	.	.	.	.	.	.	.	.	.	.	.	.	.	.	.	.
8r	.	.	(16e/	.	.	.	.	.	.	.	.	.	.	.	.	.	.	.	.
.	.	.	16d/JJ)	.	.	.	.	.	.	.	.	.	.	.	.	.	.	.	.
=6	=6	=6	=6	=6	=6	=6	=6	=6	=6	=6	=6	=6	=6	=6	=6	=6	=6	=6	=6
16G#X\LL	6 5	.	(16dd\LL	.	1ryy	.	.	.	.	.	.	.	.	.	.	.	.	1ryy	1ryy
16A\	.	.	16cc#\JJ)	.	.	.	.	.	.	.	.	.	.	.	.	.	.	.	.
16G#\	6 5	.	16r	.	.	.	.	.	.	.	.	.	.	.	.	.	.	.	.
16A\JJ	.	.	16cc#\	.	.	.	.	.	.	.	.	.	.	.	.	.	.	.	.
8AA/	.	.	(16ee\LL	.	.	.	.	.	.	.	.	.	.	.	.	.	.	.	.
.	.	.	16cc#\)	.	.	.	.	.	.	.	.	.	.	.	.	.	.	.	.
8r	.	.	(16b\	.	.	.	.	.	.	.	.	.	.	.	.	.	.	.	.
.	.	.	16a\JJ)	.	.	.	.	.	.	.	.	.	.	.	.	.	.	.	.
16G#\LL	6 5	.	(16g#X/LL	.	.	.	.	.	.	.	.	.	.	.	.	.	.	.	.
16A\	.	.	16a/JJ)	.	.	.	.	.	.	.	.	.	.	.	.	.	.	.	.
16G#\	6 5	.	16r	.	.	.	.	.	.	.	.	.	.	.	.	.	.	.	.
16A\JJ	.	.	16c#/	.	.	.	.	.	.	.	.	.	.	.	.	.	.	.	.
8AA/	.	.	(16e/LL	.	.	.	.	.	.	.	.	.	.	.	.	.	.	.	.
.	.	.	16c#/)	.	.	.	.	.	.	.	.	.	.	.	.	.	.	.	.
8r	.	.	(16B/	.	.	.	.	.	.	.	.	.	.	.	.	.	.	.	.
.	.	.	16A/JJ)	.	.	.	.	.	.	.	.	.	.	.	.	.	.	.	.
!	!	!	!LO:LB:g=original	!	!	!	!	!	!	!	!	!	!	!	!	!	!	!	!
=7	=7	=7	=7	=7	=7	=7	=7	=7	=7	=7	=7	=7	=7	=7	=7	=7	=7	=7	=7
!	!	!	!	!LO:DY:a:Bi:t=p&colon;	!	!	!	!	!	!	!	!	!	!	!LO:DY:a:Bi:t=p&colon;	!	!LO:DY:a:Bi:t=p&colon;	!	!
4D/	.	.	(16c#/LL	p	1ryy	.	.	.	.	.	.	.	.	1a	p	1a	p	1ryy	1ryy
.	.	.	16d/)	.	.	.	.	.	.	.	.	.	.	.	.	.	.	.	.
.	.	.	16d'/	.	.	.	.	.	.	.	.	.	.	.	.	.	.	.	.
.	.	.	16d'/JJ	.	.	.	.	.	.	.	.	.	.	.	.	.	.	.	.
4C#/	6 5	.	(8.e/L	.	.	.	.	.	.	.	.	.	.	.	.	.	.	.	.
.	.	.	32f#/LL	.	.	.	.	.	.	.	.	.	.	.	.	.	.	.	.
.	.	.	32e/JJJ)	.	.	.	.	.	.	.	.	.	.	.	.	.	.	.	.
!LO:LB:g=original	!	!	!	!	!	!	!	!	!	!	!	!	!	!	!	!	!	!	!
4D/	6 5	.	(16e/LL	.	.	.	.	.	.	.	.	.	.	.	.	.	.	.	.
.	.	.	16d/)	.	.	.	.	.	.	.	.	.	.	.	.	.	.	.	.
.	.	.	16d'/	.	.	.	.	.	.	.	.	.	.	.	.	.	.	.	.
.	.	.	16d'/JJ	.	.	.	.	.	.	.	.	.	.	.	.	.	.	.	.
4C#/	.	.	(8.e/L	.	.	.	.	.	.	.	.	.	.	.	.	.	.	.	.
.	.	.	32f#/LL	.	.	.	.	.	.	.	.	.	.	.	.	.	.	.	.
.	.	.	32e/JJJ)	.	.	.	.	.	.	.	.	.	.	.	.	.	.	.	.
=8	=8	=8	=8	=8	=8	=8	=8	=8	=8	=8	=8	=8	=8	=8	=8	=8	=8	=8	=8
4D/	.	.	4d/	.	1ryy	.	.	.	.	.	.	.	.	8d/L	.	8dd\L	.	1ryy	1ryy
.	.	.	.	.	.	.	.	.	.	.	.	.	.	8d/	.	8dd\	.	.	.
8r	.	.	8r	.	.	.	.	.	.	.	.	.	.	8d/	.	8dd\	.	.	.
8D/	.	.	8dd'\	.	.	.	.	.	.	.	.	.	.	8d/J	.	8dd\J	.	.	.
4AA/	.	.	16cc#'/LL	.	.	.	.	.	.	.	.	.	.	4a/	.	4a/	.	.	.
.	.	.	16b'/	.	.	.	.	.	.	.	.	.	.	.	.	.	.	.	.
.	.	.	16a'/	.	.	.	.	.	.	.	.	.	.	.	.	.	.	.	.
.	.	.	16g'/JJ	.	.	.	.	.	.	.	.	.	.	.	.	.	.	.	.
4r	.	.	16f#'/LL	.	.	.	.	.	.	.	.	.	.	4r	.	4r	.	.	.
.	.	.	16e'/	.	.	.	.	.	.	.	.	.	.	.	.	.	.	.	.
.	.	.	16d'/	.	.	.	.	.	.	.	.	.	.	.	.	.	.	.	.
.	.	.	16c#'/JJ	.	.	.	.	.	.	.	.	.	.	.	.	.	.	.	.
=9	=9	=9	=9	=9	=9	=9	=9	=9	=9	=9	=9	=9	=9	=9	=9	=9	=9	=9	=9
!LO:TX:a:i:t=tutti	!	!	!	!LO:DY:a:Bi:t=f&colon;	!	!	!	!	!	!	!	!	!	!	!LO:DY:a:Bi:t=f&colon;	!	!LO:DY:a:Bi:t=f&colon;	!	!
2D\	.	.	2ff# 2a 2d\	f	1ryy	2d\	Di-	2A\	Di-	2f#\	Di-	2dd\	Di-	2f#/	f	2dd\	f	1ryy	1ryy
4D\	.	.	4ff# 4a 4d\	.	.	4d\	-xit	4A\	-xit	4f#\	-xit	4dd\	-xit	4f#/	.	4dd\	.	.	.
4r	.	.	4r	.	.	4r	.	4r	.	4r	.	4r	.	4r	.	4r	.	.	.
=10	=10	=10	=10	=10	=10	=10	=10	=10	=10	=10	=10	=10	=10	=10	=10	=10	=10	=10	=10
!	!	!	!	!LO:DY:a:Bi:t=p&colon;	!	!	!	!	!	!	!	!LO:TX:a:i:t=Solo&colon;	!	!	!	!	!	!	!
00r	.	.	(16d/LL	p	1ryy	00r	.	00r	.	00r	.	8.dd\L	Di-	00r	.	00r	.	1ryy	1ryy
.	.	.	16f#/)	.	.	.	.	.	.	.	.	.	.	.	.	.	.	.	.
.	.	.	(16d/	.	.	.	.	.	.	.	.	.	.	.	.	.	.	.	.
.	.	.	16f#/JJ)	.	.	.	.	.	.	.	.	16a\Jk	.	.	.	.	.	.	.
.	.	.	(16d/LL	.	.	.	.	.	.	.	.	8.ff#\L	-xit	.	.	.	.	.	.
.	.	.	16f#/)	.	.	.	.	.	.	.	.	.	.	.	.	.	.	.	.
.	.	.	(16d/	.	.	.	.	.	.	.	.	.	.	.	.	.	.	.	.
.	.	.	16f#/JJ)	.	.	.	.	.	.	.	.	16dd\Jk	.	.	.	.	.	.	.
*	*	*	*tremolo	*	*	*	*	*	*	*	*	*	*	*	*	*	*	*	*
.	.	.	16e/LL	.	.	.	.	.	.	.	.	16dd\LL	Do-	.	.	.	.	.	.
.	.	.	16g/	.	.	.	.	.	.	.	.	16cc#\JJ	.	.	.	.	.	.	.
.	.	.	16e/	.	.	.	.	.	.	.	.	16b\LL	-mi-	.	.	.	.	.	.
.	.	.	16g/	.	.	.	.	.	.	.	.	16cc#\JJ	.	.	.	.	.	.	.
.	.	.	16e/	.	.	.	.	.	.	.	.	8cc#\	-nus	.	.	.	.	.	.
.	.	.	16g/	.	.	.	.	.	.	.	.	.	.	.	.	.	.	.	.
.	.	.	16e/	.	.	.	.	.	.	.	.	8r	.	.	.	.	.	.	.
.	.	.	16g/JJ	.	.	.	.	.	.	.	.	.	.	.	.	.	.	.	.
*	*	*	*Xtremolo	*	*	*	*	*	*	*	*	*	*	*	*	*	*	*	*
!	!	!	!LO:LB:g=original	!	!	!	!	!	!	!	!	!	!	!	!	!	!	!	!
=11	=11	=11	=11	=11	=11	=11	=11	=11	=11	=11	=11	=11	=11	=11	=11	=11	=11	=11	=11
.	.	.	16e/LL	.	1ryy	.	.	.	.	.	.	8.ee\L	Do-	.	.	.	.	1ryy	1ryy
.	.	.	16g/	.	.	.	.	.	.	.	.	.	.	.	.	.	.	.	.
.	.	.	16e/	.	.	.	.	.	.	.	.	.	.	.	.	.	.	.	.
.	.	.	16g/JJ	.	.	.	.	.	.	.	.	16cc#\Jk	.	.	.	.	.	.	.
.	.	.	16e/LL	.	.	.	.	.	.	.	.	8.gg\	-mi-	.	.	.	.	.	.
.	.	.	16g/	.	.	.	.	.	.	.	.	.	.	.	.	.	.	.	.
.	.	.	16e/	.	.	.	.	.	.	.	.	.	.	.	.	.	.	.	.
.	.	.	16g/JJ	.	.	.	.	.	.	.	.	16ee\	-no	.	.	.	.	.	.
*	*	*	*tremolo	*	*	*	*	*	*	*	*	*	*	*	*	*	*	*	*
.	.	.	16f#/LL	.	.	.	.	.	.	.	.	16ee\LL	me-	.	.	.	.	.	.
.	.	.	16a/	.	.	.	.	.	.	.	.	16dd\	.	.	.	.	.	.	.
.	.	.	16f#/	.	.	.	.	.	.	.	.	16cc#\	.	.	.	.	.	.	.
.	.	.	16a/	.	.	.	.	.	.	.	.	16dd\JJ	.	.	.	.	.	.	.
.	.	.	16f#/	.	.	.	.	.	.	.	.	8dd\	-o	.	.	.	.	.	.
.	.	.	16a/	.	.	.	.	.	.	.	.	.	.	.	.	.	.	.	.
.	.	.	16f#/	.	.	.	.	.	.	.	.	8r	.	.	.	.	.	.	.
.	.	.	16a/JJ	.	.	.	.	.	.	.	.	.	.	.	.	.	.	.	.
*	*	*	*	*	*	*	*	*	*	*	*	*	*	*	*	*	*	*	*
!	!	!	!	!	!	!	!	!	!	!	!	!LO:LB:g=original	!	!	!	!	!	!	!
=12	=12	=12	=12	=12	=12	=12	=12	=12	=12	=12	=12	=12	=12	=12	=12	=12	=12	=12	=12
.	.	.	16f#/LL	.	1ryy	.	.	.	.	.	.	4.aa\	Se-	.	.	.	.	1ryy	1ryy
.	.	.	16a/	.	.	.	.	.	.	.	.	.	.	.	.	.	.	.	.
.	.	.	16f#/	.	.	.	.	.	.	.	.	.	.	.	.	.	.	.	.
.	.	.	16a/	.	.	.	.	.	.	.	.	.	.	.	.	.	.	.	.
.	.	.	16f#/	.	.	.	.	.	.	.	.	.	.	.	.	.	.	.	.
.	.	.	16a/	.	.	.	.	.	.	.	.	.	.	.	.	.	.	.	.
.	.	.	16f#/	.	.	.	.	.	.	.	.	32gg\LLL	-de	.	.	.	.	.	.
.	.	.	.	.	.	.	.	.	.	.	.	32ff#\JJJ	.	.	.	.	.	.	.
.	.	.	16a/JJ	.	.	.	.	.	.	.	.	32ee\LLL	a	.	.	.	.	.	.
.	.	.	.	.	.	.	.	.	.	.	.	32dd\JJJ	.	.	.	.	.	.	.
*	*	*	*	*	*	*	*	*	*	*	*	*	*	*	*	*	*	*	*
.	.	.	16g/LL	.	.	.	.	.	.	.	.	8.bb\L	dex-	.	.	.	.	.	.
.	.	.	16b/	.	.	.	.	.	.	.	.	.	.	.	.	.	.	.	.
.	.	.	16g/	.	.	.	.	.	.	.	.	.	.	.	.	.	.	.	.
.	.	.	16b/	.	.	.	.	.	.	.	.	16gg\Jk	.	.	.	.	.	.	.
.	.	.	16g/	.	.	.	.	.	.	.	.	8ee\	-tris	.	.	.	.	.	.
.	.	.	16b/	.	.	.	.	.	.	.	.	.	.	.	.	.	.	.	.
.	.	.	16g/	.	.	.	.	.	.	.	.	16r	.	.	.	.	.	.	.
.	.	.	16b/JJ	.	.	.	.	.	.	.	.	16ee\	a	.	.	.	.	.	.
=13	=13	=13	=13	=13	=13	=13	=13	=13	=13	=13	=13	=13	=13	=13	=13	=13	=13	=13	=13
.	.	.	16e/LL	.	1ryy	.	.	.	.	.	.	4gg\	dex-	.	.	.	.	1ryy	1ryy
.	.	.	16a/	.	.	.	.	.	.	.	.	.	.	.	.	.	.	.	.
.	.	.	16e/	.	.	.	.	.	.	.	.	.	.	.	.	.	.	.	.
.	.	.	16a/	.	.	.	.	.	.	.	.	.	.	.	.	.	.	.	.
.	.	.	16e/	.	.	.	.	.	.	.	.	32ff#\LLL	.	.	.	.	.	.	.
.	.	.	.	.	.	.	.	.	.	.	.	32gg\	.	.	.	.	.	.	.
.	.	.	16a/	.	.	.	.	.	.	.	.	32aa\	.	.	.	.	.	.	.
.	.	.	.	.	.	.	.	.	.	.	.	32gg\JJJ	.	.	.	.	.	.	.
.	.	.	16e/	.	.	.	.	.	.	.	.	32ff#\LLL	.	.	.	.	.	.	.
.	.	.	.	.	.	.	.	.	.	.	.	32ee\JJJ	.	.	.	.	.	.	.
.	.	.	16a/JJ	.	.	.	.	.	.	.	.	32dd\LLL	-tris	.	.	.	.	.	.
.	.	.	.	.	.	.	.	.	.	.	.	32cc#\JJJ	.	.	.	.	.	.	.
.	.	.	16f#/LL	.	.	.	.	.	.	.	.	16dd\LL	me-	.	.	.	.	.	.
.	.	.	16d/	.	.	.	.	.	.	.	.	16a\JJ	.	.	.	.	.	.	.
.	.	.	16f#/	.	.	.	.	.	.	.	.	8a\	-is	.	.	.	.	.	.
.	.	.	16d/	.	.	.	.	.	.	.	.	.	.	.	.	.	.	.	.
.	.	.	16f#/	.	.	.	.	.	.	.	.	4r	.	.	.	.	.	.	.
.	.	.	16d/	.	.	.	.	.	.	.	.	.	.	.	.	.	.	.	.
.	.	.	16f#/	.	.	.	.	.	.	.	.	.	.	.	.	.	.	.	.
.	.	.	16d/JJ	.	.	.	.	.	.	.	.	.	.	.	.	.	.	.	.
*	*	*	*Xtremolo	*	*	*	*	*	*	*	*	*	*	*	*	*	*	*	*
=14	=14	=14	=14	=14	=14	=14	=14	=14	=14	=14	=14	=14	=14	=14	=14	=14	=14	=14	=14
!	!	!	!	!LO:DY:a:Bi:t=f&colon;	!	!	!	!	!	!	!	!	!	!	!	!	!	!	!
16c#\LL	6 5	.	(16gg\LL	f	1ryy	16c#\LL	Se-	16e\LL	Se-	4a\	Se-	16gg\LL	Se-	4a/	.	4aa\	.	1ryy	1ryy
16d\	.	.	16ff#\JJ)	.	.	16d\	.	16d\	.	.	.	16ff#\	.	.	.	.	.	.	.
16c#\	6 5	.	16r	.	.	16c#\	.	16e\	.	.	.	16gg\	.	.	.	.	.	.	.
16d\JJ	.	.	16ff#\	.	.	16d\JJ	.	16d\JJ	.	.	.	16ff#\JJ	.	.	.	.	.	.	.
8D\	.	.	(16aa\LL	.	.	8D\	-de	8d\	-de	8a\	-de	8ff#\	-de	8a/	.	8aa\	.	.	.
.	.	.	16ff#\)	.	.	.	.	.	.	.	.	.	.	.	.	.	.	.	.
8r	.	.	(16ee\	.	.	8r	.	8r	.	8r	.	8r	.	8r	.	8r	.	.	.
.	.	.	16dd\JJ)	.	.	.	.	.	.	.	.	.	.	.	.	.	.	.	.
*	*	*	*	*	*	*	*ij	*	*ij	*	*ij	*	*	*	*	*	*	*	*
16c#\LL	6 5	.	(16cc#\LL	.	.	16c#\LL	Se-	16e\LL	Se-	4a\	Se-	16gg\LL	Se-	4a/	.	4aa\	.	.	.
16d\	.	.	16dd\JJ)	.	.	16d\	.	16d\	.	.	.	16ff#\	.	.	.	.	.	.	.
16c#\	6 5	.	16r	.	.	16c#\	.	16e\	.	.	.	16gg\	.	.	.	.	.	.	.
16d\JJ	.	.	16f#/	.	.	16d\JJ	.	16d\JJ	.	.	.	16ff#\JJ	.	.	.	.	.	.	.
!	!	!	!	!	!	!	!	!	!	!	!	!LO:LB:g=original	!	!	!	!	!	!	!
8D\	.	.	(16a/LL	.	.	8D\	-de	8d\	-de	8a\	-de	8ff#\	-de	8a/	.	8aa\	.	.	.
.	.	.	16f#/)	.	.	.	.	.	.	.	.	.	.	.	.	.	.	.	.
8r	.	.	(16e/	.	.	8r	.	8r	.	8r	.	8r	.	8r	.	8r	.	.	.
.	.	.	16d/JJ)	.	.	.	.	.	.	.	.	.	.	.	.	.	.	.	.
!	!	!	!LO:LB:g=original	!	!	!	!	!	!	!	!	!	!	!	!	!	!	!	!
=15	=15	=15	=15	=15	=15	=15	=15	=15	=15	=15	=15	=15	=15	=15	=15	=15	=15	=15	=15
16G#X\LL	6 5	.	16dd\LL	.	1ryy	16G#X\LL	Se-	16d\LL	Se-	16b\LL	Se-	4ee\	Se-	4ee\	.	4ee\	.	1ryy	1ryy
16A\	.	.	16cc#\JJ	.	.	16A\	.	16c#\	.	16cc#\	.	.	.	.	.	.	.	.	.
16G#\	6 5	.	16r	.	.	16G#\	.	16d\	.	16b\	.	.	.	.	.	.	.	.	.
16A\JJ	.	.	16cc#\	.	.	16A\JJ	.	16c#\JJ	.	16cc#\JJ	.	.	.	.	.	.	.	.	.
8AA/	.	.	16ee\LL	.	.	8AA/	-de	8c#\	-de	8cc#\	-de	8ee\	-de	8ee\	.	8ee\	.	.	.
*	*	*	*	*	*	*	*Xij	*	*Xij	*	*	*	*	*	*	*	*	*	*
.	.	.	16cc#\	.	.	.	.	.	.	.	.	.	.	.	.	.	.	.	.
8r	.	.	16b\	.	.	8r	.	8r	.	8r	.	8r	.	8r	.	8r	.	.	.
.	.	.	16a\JJ	.	.	.	.	.	.	.	.	.	.	.	.	.	.	.	.
*	*	*	*	*	*	*	*	*	*	*	*	*	*ij	*	*	*	*	*	*
!LO:LB:g=original	!	!	!	!	!	!LO:LB:g=original	!	!LO:LB:g=original	!	!	!	!	!	!	!	!	!	!	!
16G#X\LL	6 5	.	16g#X/LL	.	.	16G#X\LL	Se-	16d\LL	Se-	16b\LL	Se-	4ee\	Se-	4ee\	.	4ee\	.	.	.
16A\	.	.	16a/JJ	.	.	16A\	.	16c#\	.	16cc#\	.	.	.	.	.	.	.	.	.
16G#\	6 5	.	16r	.	.	16G#\	.	16d\	.	16b\	.	.	.	.	.	.	.	.	.
16A\JJ	.	.	16c#/	.	.	16A\JJ	.	16c#\JJ	.	16cc#\JJ	.	.	.	.	.	.	.	.	.
8AA/	.	.	16e/LL	.	.	8AA/	-de	8c#\	-de	8cc#\	-de	8ee\	-de	8ee\	.	8ee\	.	.	.
*	*	*	*	*	*	*	*	*	*	*	*Xij	*	*	*	*	*	*	*	*
.	.	.	16c#/	.	.	.	.	.	.	.	.	.	.	.	.	.	.	.	.
8r	.	.	16B/	.	.	8r	.	8r	.	8r	.	8r	.	8r	.	8r	.	.	.
.	.	.	16A/JJ	.	.	.	.	.	.	.	.	.	.	.	.	.	.	.	.
!	!	!	!	!	!	!	!	!	!	!LO:LB:g=original	!	!	!	!LO:LB:g=original	!	!LO:LB:g=original	!	!	!
=16	=16	=16	=16	=16	=16	=16	=16	=16	=16	=16	=16	=16	=16	=16	=16	=16	=16	=16	=16
!	!	!	!LO:TX:t=P:problem=mixed beam	!	!	!	!	!	!	!	!	!	!	!	!	!	!	!	!
8D/L	.	.	16d/LL	.	1ryy	4d\	Se-	4d\	Se-	4a\	Se-	4ff#\	Se-	4dd\	.	4ff#\	.	1ryy	1ryy
.	.	.	16dd\	.	.	.	.	.	.	.	.	.	.	.	.	.	.	.	.
8D/	.	.	16dd\	.	.	.	.	.	.	.	.	.	.	.	.	.	.	.	.
.	.	.	16dd\JJ	.	.	.	.	.	.	.	.	.	.	.	.	.	.	.	.
8C#/	x 6	.	8.ee\L	.	.	8c#\	-de	8e\	-de	8a\	-de	8ee\	-de	4a/	.	4ee\	.	.	.
*	*	*	*	*	*	*	*	*	*	*	*	*	*Xij	*	*	*	*	*	*
8C#/J	.	.	.	.	.	8c#\	a	8e\	a	8a\	a	8ee\	a	.	.	.	.	.	.
.	.	.	32ff#\LL	.	.	.	.	.	.	.	.	.	.	.	.	.	.	.	.
.	.	.	32ee\JJJ	.	.	.	.	.	.	.	.	.	.	.	.	.	.	.	.
8D/L	.	.	16ee\LL	.	.	4d\	dex-	4d\	dex-	4a\	dex-	4ff#\	dex-	4dd\	.	4ff#\	.	.	.
.	.	.	16dd\	.	.	.	.	.	.	.	.	.	.	.	.	.	.	.	.
8D/	.	.	16dd\	.	.	.	.	.	.	.	.	.	.	.	.	.	.	.	.
.	.	.	16dd\JJ	.	.	.	.	.	.	.	.	.	.	.	.	.	.	.	.
8C#/	x 6	.	8.ee\L	.	.	4c#\	-tris	4e\	-tris	4a\	-tris	4ee\	-tris	4a/	.	4aa\	.	.	.
8C#/J	.	.	.	.	.	.	.	.	.	.	.	.	.	.	.	.	.	.	.
.	.	.	32ff#\LL	.	.	.	.	.	.	.	.	.	.	.	.	.	.	.	.
.	.	.	32ee\JJJ	.	.	.	.	.	.	.	.	.	.	.	.	.	.	.	.
=17	=17	=17	=17	=17	=17	=17	=17	=17	=17	=17	=17	=17	=17	=17	=17	=17	=17	=17	=17
8BB/L	x 7	.	8dd\L	.	1ryy	2B\	me-	4f#\	me-	(4a\	me-	2dd\	me-	4dd\	.	4aa\	.	1ryy	1ryy
8BB/	.	.	8dd\	.	.	.	.	.	.	.	.	.	.	.	.	.	.	.	.
8BB/	x 6\	.	8dd\	.	.	.	.	4d\	.	4g#X\)	.	.	.	4ee\	.	4gg#X\	.	.	.
8BB/J	.	.	8dd\J	.	.	.	.	.	.	.	.	.	.	.	.	.	.	.	.
4AA/	.	.	4cc#\	.	.	4A\	-is	4e\	-is	4a\	-is	4cc#\	-is	4a/	.	4aa\	.	.	.
4r	.	.	4r	.	.	4r	.	4r	.	4r	.	4r	.	4r	.	4r	.	.	.
!LO:LB:g=original	!	!	!LO:LB:g=original	!	!	!LO:LB:g=orignal	!	!LO:LB:g=original	!	!LO:LB:g=original	!	!LO:LB:g=original	!	!	!	!	!	!	!
=18||	=18||	=18||	=18||	=18||	=18||	=18||	=18||	=18||	=18||	=18||	=18||	=18||	=18||	=18||	=18||	=18||	=18||	=18||	=18||
*k[f#c#]	*	*	*k[f#c#]	*	*k[f#c#]	*k[f#c#]	*	*k[f#c#]	*	*k[f#c#]	*	*k[f#c#]	*	*k[f#c#]	*	*k[f#c#]	*	*k[f#c#]	*k[f#c#]
*M4/4	*	*	*M4/4	*	*M4/4	*M4/4	*	*M4/4	*	*M4/4	*	*M4/4	*	*M4/4	*	*M4/4	*	*M4/4	*M4/4
*met(c)	*	*	*met(c)	*	*met(c)	*met(c)	*	*met(c)	*	*met(c)	*	*met(c)	*	*met(c)	*	*met(c)	*	*met(c)	*met(c)
!!LO:TX:t=P:problem:metrum C.:global
!LO:TX:a:i:t=Allegro di molto	!	!	!	!	!	!	!	!	!	!	!	!LO:TX:t=P:znaki:problem= cc# zamiast c#	!	!	!	!	!	!	!LO:TX:a:B:t=allegro di molto
!LO:TX:a:i:t=tutti	!	!	!LO:TX:t=allegro molto	!LO:DY:b:Bi:t=for	!	!LO:TX:t=allegro di molto	!	!LO:TX:t=allegro di molto	!	!LO:TX:t=allegro di molto	!	!LO:TX:t=allegro di molto	!	!LO:TX:t=allegro molto	!	!LO:TX:t=allegro molto	!	!	!
8D\L	.	.	16f#/LL	f	1ryy	2D\	Do-	2A\	Do-	2f#\	Do-	2dd\	Do-	4f#/	.	4dd\	.	1ryy	1ryy
.	.	.	16a/	.	.	.	.	.	.	.	.	.	.	.	.	.	.	.	.
8D\	.	.	16f#/	.	.	.	.	.	.	.	.	.	.	.	.	.	.	.	.
.	.	.	16a/JJ	.	.	.	.	.	.	.	.	.	.	.	.	.	.	.	.
8D\	.	.	16f#/LL	.	.	.	.	.	.	.	.	.	.	8f#/L	.	8dd\L	.	.	.
.	.	.	16a/	.	.	.	.	.	.	.	.	.	.	.	.	.	.	.	.
8D\J	.	.	16f#/	.	.	.	.	.	.	.	.	.	.	8f#/J	.	8dd\J	.	.	.
.	.	.	16a/JJ	.	.	.	.	.	.	.	.	.	.	.	.	.	.	.	.
*tremolo	*	*	*tremolo	*	*	*	*	*	*	*	*	*	*	*	*	*	*	*	*
8D\L	.	.	16f#/LL	.	.	2D\	-nec	2A\	-nec	2f#\	-nec	2dd\	-nec	4f#/	.	4dd\	.	.	.
.	.	.	16a/	.	.	.	.	.	.	.	.	.	.	.	.	.	.	.	.
8D\	.	.	16f#/	.	.	.	.	.	.	.	.	.	.	.	.	.	.	.	.
.	.	.	16a/	.	.	.	.	.	.	.	.	.	.	.	.	.	.	.	.
8D\	.	.	16f#/	.	.	.	.	.	.	.	.	.	.	4f#/	.	4dd\	.	.	.
.	.	.	16a/	.	.	.	.	.	.	.	.	.	.	.	.	.	.	.	.
8D\J	.	.	16f#/	.	.	.	.	.	.	.	.	.	.	.	.	.	.	.	.
.	.	.	16a/JJ	.	.	.	.	.	.	.	.	.	.	.	.	.	.	.	.
=19	=19	=19	=19	=19	=19	=19	=19	=19	=19	=19	=19	=19	=19	=19	=19	=19	=19	=19	=19
8D\L	.	.	16f#/LL	.	1ryy	2D\	po-	2A\	po-	2f#\	po-	2dd\	po-	4f#/	.	4dd\	.	1ryy	1ryy
.	.	.	16a/	.	.	.	.	.	.	.	.	.	.	.	.	.	.	.	.
8D\	.	.	16f#/	.	.	.	.	.	.	.	.	.	.	.	.	.	.	.	.
.	.	.	16a/	.	.	.	.	.	.	.	.	.	.	.	.	.	.	.	.
8D\	.	.	16f#/	.	.	.	.	.	.	.	.	.	.	4f#/	.	4dd\	.	.	.
.	.	.	16a/	.	.	.	.	.	.	.	.	.	.	.	.	.	.	.	.
8D\J	.	.	16f#/	.	.	.	.	.	.	.	.	.	.	.	.	.	.	.	.
.	.	.	16a/JJ	.	.	.	.	.	.	.	.	.	.	.	.	.	.	.	.
8D\L	.	.	16f#/LL	.	.	2D\	-nam	2A\	-nam	2f#\	-nam	2dd\	-nam	4f#/	.	4dd\	.	.	.
.	.	.	16a/	.	.	.	.	.	.	.	.	.	.	.	.	.	.	.	.
8D\	.	.	16f#/	.	.	.	.	.	.	.	.	.	.	.	.	.	.	.	.
.	.	.	16a/	.	.	.	.	.	.	.	.	.	.	.	.	.	.	.	.
8D\	.	.	16f#/	.	.	.	.	.	.	.	.	.	.	4r	.	4r	.	.	.
.	.	.	16a/	.	.	.	.	.	.	.	.	.	.	.	.	.	.	.	.
8D\J	.	.	16f#/	.	.	.	.	.	.	.	.	.	.	.	.	.	.	.	.
.	.	.	16a/JJ	.	.	.	.	.	.	.	.	.	.	.	.	.	.	.	.
*	*	*	*Xtremolo	*	*	*	*	*	*	*	*	*	*	*	*	*	*	*	*
=20	=20	=20	=20	=20	=20	=20	=20	=20	=20	=20	=20	=20	=20	=20	=20	=20	=20	=20	=20
!	!	!LO:DY:a:Bi:t=p&colon;	!	!LO:DY:a:Bi:t=p&colon;	!	!	!	!	!	!	!	!	!	!	!	!	!	!	!
8D\L	.	p	8ff#\	p	1ryy	0r	.	0r	.	0r	.	0r	.	0r	.	0r	.	1ryy	1ryy
8D\	.	.	8r	.	.	.	.	.	.	.	.	.	.	.	.	.	.	.	.
8D\	.	.	8dd\	.	.	.	.	.	.	.	.	.	.	.	.	.	.	.	.
8D\J	.	.	8r	.	.	.	.	.	.	.	.	.	.	.	.	.	.	.	.
8D\L	.	.	8a/	.	.	.	.	.	.	.	.	.	.	.	.	.	.	.	.
8D\	.	.	8r	.	.	.	.	.	.	.	.	.	.	.	.	.	.	.	.
8D\	.	.	8f#/	.	.	.	.	.	.	.	.	.	.	.	.	.	.	.	.
8D\J	.	.	8r	.	.	.	.	.	.	.	.	.	.	.	.	.	.	.	.
=21	=21	=21	=21	=21	=21	=21	=21	=21	=21	=21	=21	=21	=21	=21	=21	=21	=21	=21	=21
8D\L	.	.	8d/	.	1ryy	.	.	.	.	.	.	.	.	.	.	.	.	1ryy	1ryy
8D\	.	.	8r	.	.	.	.	.	.	.	.	.	.	.	.	.	.	.	.
8D\	.	.	8f#/	.	.	.	.	.	.	.	.	.	.	.	.	.	.	.	.
8D\J	.	.	8r	.	.	.	.	.	.	.	.	.	.	.	.	.	.	.	.
8D\L	.	.	8d/	.	.	.	.	.	.	.	.	.	.	.	.	.	.	.	.
8D\	.	.	8r	.	.	.	.	.	.	.	.	.	.	.	.	.	.	.	.
8D\	.	.	8A/	.	.	.	.	.	.	.	.	.	.	.	.	.	.	.	.
8D\J	.	.	8r	.	.	.	.	.	.	.	.	.	.	.	.	.	.	.	.
!	!	!	!LO:LB:g=original	!	!	!	!	!	!	!	!	!	!	!	!	!	!	!	!
=22	=22	=22	=22	=22	=22	=22	=22	=22	=22	=22	=22	=22	=22	=22	=22	=22	=22	=22	=22
*	*	*	*	*	*	*	*ij	*	*ij	*	*ij	*	*ij	*	*	*	*	*	*
!	!	!LO:DY:a:Bi:t=f&colon;	!	!LO:DY:a:Bi:t=for&colon;	!	!	!	!	!	!	!	!	!	!	!	!	!	!	!
8AA/L	.	f	16c#/LL	f	1ryy	2A\	Do-	2A\	Do-	2e\	Do-	2cc#\	Do-	4a/	.	4ee\	.	1ryy	1ryy
.	.	.	16e/	.	.	.	.	.	.	.	.	.	.	.	.	.	.	.	.
8AA/	.	.	16c#/	.	.	.	.	.	.	.	.	.	.	.	.	.	.	.	.
.	.	.	16e/JJ	.	.	.	.	.	.	.	.	.	.	.	.	.	.	.	.
8AA/	.	.	16c#/LL	.	.	.	.	.	.	.	.	.	.	8a/L	.	8ee\L	.	.	.
.	.	.	16e/	.	.	.	.	.	.	.	.	.	.	.	.	.	.	.	.
8AA/J	.	.	16c#/	.	.	.	.	.	.	.	.	.	.	8a/J	.	8ee\J	.	.	.
.	.	.	16e/JJ	.	.	.	.	.	.	.	.	.	.	.	.	.	.	.	.
*	*	*	*tremolo	*	*	*	*	*	*	*	*	*	*	*	*	*	*	*	*
8AA/L	.	.	16c#/LL	.	.	2A\	-nec	2A\	-nec	2e\	-nec	2cc#\	-nec	4a/	.	4ee\	.	.	.
.	.	.	16e/	.	.	.	.	.	.	.	.	.	.	.	.	.	.	.	.
8AA/	.	.	16c#/	.	.	.	.	.	.	.	.	.	.	.	.	.	.	.	.
.	.	.	16e/	.	.	.	.	.	.	.	.	.	.	.	.	.	.	.	.
8AA/	.	.	16c#/	.	.	.	.	.	.	.	.	.	.	4a/	.	4ee\	.	.	.
.	.	.	16e/	.	.	.	.	.	.	.	.	.	.	.	.	.	.	.	.
8AA/J	.	.	16c#/	.	.	.	.	.	.	.	.	.	.	.	.	.	.	.	.
.	.	.	16e/JJ	.	.	.	.	.	.	.	.	.	.	.	.	.	.	.	.
=23	=23	=23	=23	=23	=23	=23	=23	=23	=23	=23	=23	=23	=23	=23	=23	=23	=23	=23	=23
8AA/L	.	.	16c#/LL	.	1ryy	2A\	po-	2A\	po-	2e\	po-	2cc#\	po-	4a/	.	4ee\	.	1ryy	1ryy
.	.	.	16e/	.	.	.	.	.	.	.	.	.	.	.	.	.	.	.	.
8AA/	.	.	16c#/	.	.	.	.	.	.	.	.	.	.	.	.	.	.	.	.
.	.	.	16e/	.	.	.	.	.	.	.	.	.	.	.	.	.	.	.	.
8AA/	.	.	16c#/	.	.	.	.	.	.	.	.	.	.	4a/	.	4ee\	.	.	.
.	.	.	16e/	.	.	.	.	.	.	.	.	.	.	.	.	.	.	.	.
8AA/J	.	.	16c#/	.	.	.	.	.	.	.	.	.	.	.	.	.	.	.	.
.	.	.	16e/JJ	.	.	.	.	.	.	.	.	.	.	.	.	.	.	.	.
8AA/L	.	.	16c#/LL	.	.	2A\	-nam	2A\	-nam	2e\	-nam	2cc#\	-nam	4a/	.	4ee\	.	.	.
.	.	.	16e/	.	.	.	.	.	.	.	.	.	.	.	.	.	.	.	.
8AA/	.	.	16c#/	.	.	.	.	.	.	.	.	.	.	.	.	.	.	.	.
.	.	.	16e/	.	.	.	.	.	.	.	.	.	.	.	.	.	.	.	.
8AA/	.	.	16c#/	.	.	.	.	.	.	.	.	.	.	4r	.	4r	.	.	.
.	.	.	16e/	.	.	.	.	.	.	.	.	.	.	.	.	.	.	.	.
8AA/J	.	.	16c#/	.	.	.	.	.	.	.	.	.	.	.	.	.	.	.	.
.	.	.	16e/JJ	.	.	.	.	.	.	.	.	.	.	.	.	.	.	.	.
*	*	*	*Xtremolo	*	*	*	*	*	*	*	*	*	*	*	*	*	*	*	*
=24	=24	=24	=24	=24	=24	=24	=24	=24	=24	=24	=24	=24	=24	=24	=24	=24	=24	=24	=24
!	!	!LO:DY:a:Bi:t=p&colon;	!	!LO:DY:a:Bi:t=p&colon;	!	!	!	!	!	!	!	!	!	!	!	!	!	!	!
8AA/L	.	p	8ee\	p	1ryy	0r	.	0r	.	0r	.	0r	.	0r	.	0r	.	1ryy	1ryy
8AA/	.	.	8r	.	.	.	.	.	.	.	.	.	.	.	.	.	.	.	.
8AA/	.	.	8cc#\	.	.	.	.	.	.	.	.	.	.	.	.	.	.	.	.
8AA/J	.	.	8r	.	.	.	.	.	.	.	.	.	.	.	.	.	.	.	.
8AA/L	.	.	8g/	.	.	.	.	.	.	.	.	.	.	.	.	.	.	.	.
8AA/	.	.	8r	.	.	.	.	.	.	.	.	.	.	.	.	.	.	.	.
8AA/	.	.	8e/	.	.	.	.	.	.	.	.	.	.	.	.	.	.	.	.
8AA/J	.	.	8r	.	.	.	.	.	.	.	.	.	.	.	.	.	.	.	.
=25	=25	=25	=25	=25	=25	=25	=25	=25	=25	=25	=25	=25	=25	=25	=25	=25	=25	=25	=25
8AA/L	.	.	8c#/	.	1ryy	.	.	.	.	.	.	.	.	.	.	.	.	1ryy	1ryy
8AA/	.	.	8r	.	.	.	.	.	.	.	.	.	.	.	.	.	.	.	.
8AA/	.	.	8e/	.	.	.	.	.	.	.	.	.	.	.	.	.	.	.	.
8AA/J	.	.	8r	.	.	.	.	.	.	.	.	.	.	.	.	.	.	.	.
8AA/L	.	.	8c#/	.	.	.	.	.	.	.	.	.	.	.	.	.	.	.	.
8AA/	.	.	8r	.	.	.	.	.	.	.	.	.	.	.	.	.	.	.	.
8AA/	.	.	8A/	.	.	.	.	.	.	.	.	.	.	.	.	.	.	.	.
8AA/J	.	.	8r	.	.	.	.	.	.	.	.	.	.	.	.	.	.	.	.
*Xtremolo	*	*	*	*	*	*	*	*	*	*	*	*	*	*	*	*	*	*	*
!LO:LB:g=original	!	!	!	!	!	!	!	!	!	!	!	!	!	!LO:LB:g=original	!	!LO:LB:g=original	!	!	!
=26	=26	=26	=26	=26	=26	=26	=26	=26	=26	=26	=26	=26	=26	=26	=26	=26	=26	=26	=26
!	!	!LO:DY:a:Bi:t=for&colon;	!	!LO:DY:a:Bi:t=for	!	!	!	!	!	!	!	!	!	!	!	!	!	!	!
8D\L	.	f	16f#/LL	f	1ryy	2D\	Do-	2A\	Do-	2f#\	Do-	2dd\	Do-	4f#/	.	4dd\	.	1ryy	1ryy
.	.	.	16a/	.	.	.	.	.	.	.	.	.	.	.	.	.	.	.	.
8D\	.	.	16f#/	.	.	.	.	.	.	.	.	.	.	.	.	.	.	.	.
.	.	.	16a/JJ	.	.	.	.	.	.	.	.	.	.	.	.	.	.	.	.
8D\	.	.	16f#/LL	.	.	.	.	.	.	.	.	.	.	8f#/L	.	8dd\L	.	.	.
.	.	.	16a/	.	.	.	.	.	.	.	.	.	.	.	.	.	.	.	.
8D\J	.	.	16f#/	.	.	.	.	.	.	.	.	.	.	8f#/J	.	8dd\J	.	.	.
.	.	.	16a/JJ	.	.	.	.	.	.	.	.	.	.	.	.	.	.	.	.
*tremolo	*	*	*	*	*	*	*	*	*	*	*	*	*	*	*	*	*	*	*
!	!	!	!LO:LB:g=original	!	!	!	!	!	!	!	!	!	!	!	!	!	!	!	!
8D\L	.	.	16f#/LL	.	.	2D\	-nec	2A\	-nec	2f#\	-nec	2dd\	-nec	4f#/	.	4dd\	.	.	.
.	.	.	16a/	.	.	.	.	.	.	.	.	.	.	.	.	.	.	.	.
8D\	.	.	16f#/	.	.	.	.	.	.	.	.	.	.	.	.	.	.	.	.
.	.	.	16a/JJ	.	.	.	.	.	.	.	.	.	.	.	.	.	.	.	.
8D\	.	.	16f#/LL	.	.	.	.	.	.	.	.	.	.	4f#/	.	4dd\	.	.	.
.	.	.	16a/	.	.	.	.	.	.	.	.	.	.	.	.	.	.	.	.
8D\J	.	.	16f#/	.	.	.	.	.	.	.	.	.	.	.	.	.	.	.	.
.	.	.	16a/JJ	.	.	.	.	.	.	.	.	.	.	.	.	.	.	.	.
=27	=27	=27	=27	=27	=27	=27	=27	=27	=27	=27	=27	=27	=27	=27	=27	=27	=27	=27	=27
*	*	*	*tremolo	*	*	*	*	*	*	*	*	*	*	*	*	*	*	*	*
8D\L	.	.	16f#/LL	.	1ryy	2D\	po-	2A\	po-	2f#\	po-	2dd\	po-	2f#/	.	2dd\	.	1ryy	1ryy
.	.	.	16a/	.	.	.	.	.	.	.	.	.	.	.	.	.	.	.	.
8D\	.	.	16f#/	.	.	.	.	.	.	.	.	.	.	.	.	.	.	.	.
.	.	.	16a/	.	.	.	.	.	.	.	.	.	.	.	.	.	.	.	.
8D\	.	.	16f#/	.	.	.	.	.	.	.	.	.	.	.	.	.	.	.	.
.	.	.	16a/	.	.	.	.	.	.	.	.	.	.	.	.	.	.	.	.
8D\J	.	.	16f#/	.	.	.	.	.	.	.	.	.	.	.	.	.	.	.	.
.	.	.	16a/JJ	.	.	.	.	.	.	.	.	.	.	.	.	.	.	.	.
8D\L	.	.	16f#//LL	.	.	2D\	-nam	2A\	-nam	2f#\	-nam	2dd\	-nam	4f#/	.	4dd\	.	.	.
.	.	.	16a/	.	.	.	.	.	.	.	.	.	.	.	.	.	.	.	.
*	*	*	*	*	*	*	*Xij	*	*Xij	*	*Xij	*	*Xij	*	*	*	*	*	*
8D\	.	.	16f#/	.	.	.	.	.	.	.	.	.	.	.	.	.	.	.	.
.	.	.	16a/	.	.	.	.	.	.	.	.	.	.	.	.	.	.	.	.
8D\	.	.	16f#/	.	.	.	.	.	.	.	.	.	.	4f#/	.	4dd\	.	.	.
.	.	.	16a/	.	.	.	.	.	.	.	.	.	.	.	.	.	.	.	.
8D\J	.	.	16f#/	.	.	.	.	.	.	.	.	.	.	.	.	.	.	.	.
.	.	.	16a/JJ	.	.	.	.	.	.	.	.	.	.	.	.	.	.	.	.
!	!	!	!	!	!	!LO:LB:g=original	!	!LO:LB:g=original	!	!LO:LB:g=original	!	!LO:LB:g=original	!	!	!	!	!	!	!
=28	=28	=28	=28	=28	=28	=28	=28	=28	=28	=28	=28	=28	=28	=28	=28	=28	=28	=28	=28
8C#/L	6_ 5_	.	16e/LL	.	1ryy	2C#/	i-	2A\	i-	2g\	i-	2ee\	i-	4a/	.	4ee\	.	1ryy	1ryy
.	.	.	16a/	.	.	.	.	.	.	.	.	.	.	.	.	.	.	.	.
8C#/	.	.	16e/	.	.	.	.	.	.	.	.	.	.	.	.	.	.	.	.
.	.	.	16a/	.	.	.	.	.	.	.	.	.	.	.	.	.	.	.	.
8C#/	.	.	16e/	.	.	.	.	.	.	.	.	.	.	8a/L	.	8ee\L	.	.	.
.	.	.	16a/	.	.	.	.	.	.	.	.	.	.	.	.	.	.	.	.
8C#/J	.	.	16e/	.	.	.	.	.	.	.	.	.	.	8a/J	.	8ee\J	.	.	.
.	.	.	16a/JJ	.	.	.	.	.	.	.	.	.	.	.	.	.	.	.	.
8C#/L	.	.	16e/LL	.	.	2C#/	-ni-	2A\	-ni-	2g\	-ni-	2ee\	-ni-	4a/	.	4ee\	.	.	.
.	.	.	16a/	.	.	.	.	.	.	.	.	.	.	.	.	.	.	.	.
8C#/	.	.	16e/	.	.	.	.	.	.	.	.	.	.	.	.	.	.	.	.
.	.	.	16a/	.	.	.	.	.	.	.	.	.	.	.	.	.	.	.	.
8C#/	.	.	16e/	.	.	.	.	.	.	.	.	.	.	4a/	.	4ee\	.	.	.
.	.	.	16a/	.	.	.	.	.	.	.	.	.	.	.	.	.	.	.	.
8C#/J	.	.	16e/	.	.	.	.	.	.	.	.	.	.	.	.	.	.	.	.
.	.	.	16a/JJ	.	.	.	.	.	.	.	.	.	.	.	.	.	.	.	.
=29	=29	=29	=29	=29	=29	=29	=29	=29	=29	=29	=29	=29	=29	=29	=29	=29	=29	=29	=29
8C#/L	.	.	16e/LL	.	1ryy	2C#/	-mi-	2A\	-mi-	2g\	-mi-	2ee\	-mi-	2a/	.	2ee\	.	1ryy	1ryy
.	.	.	16a/	.	.	.	.	.	.	.	.	.	.	.	.	.	.	.	.
8C#/	.	.	16e/	.	.	.	.	.	.	.	.	.	.	.	.	.	.	.	.
.	.	.	16a/	.	.	.	.	.	.	.	.	.	.	.	.	.	.	.	.
8C#/	.	.	16e/	.	.	.	.	.	.	.	.	.	.	.	.	.	.	.	.
.	.	.	16a/	.	.	.	.	.	.	.	.	.	.	.	.	.	.	.	.
8C#/J	.	.	16e/	.	.	.	.	.	.	.	.	.	.	.	.	.	.	.	.
.	.	.	16a/JJ	.	.	.	.	.	.	.	.	.	.	.	.	.	.	.	.
8C#/L	.	.	16e/LL	.	.	2C#/	-cos	2A\	-cos	2g\	-cos	2ee\	-cos	4a/	.	4ee\	.	.	.
.	.	.	16a/	.	.	.	.	.	.	.	.	.	.	.	.	.	.	.	.
8C#/	.	.	16e/	.	.	.	.	.	.	.	.	.	.	.	.	.	.	.	.
.	.	.	16a/	.	.	.	.	.	.	.	.	.	.	.	.	.	.	.	.
8C#/	.	.	16e/	.	.	.	.	.	.	.	.	.	.	4a/	.	4ee\	.	.	.
.	.	.	16a/	.	.	.	.	.	.	.	.	.	.	.	.	.	.	.	.
8C#/J	.	.	16e/	.	.	.	.	.	.	.	.	.	.	.	.	.	.	.	.
.	x x	.	16a/JJ	.	.	.	.	.	.	.	.	.	.	.	.	.	.	.	.
=30	=30	=30	=30	=30	=30	=30	=30	=30	=30	=30	=30	=30	=30	=30	=30	=30	=30	=30	=30
8D\L	.	.	16f#/LL	.	1ryy	2D\	tu-	2A\	tu-	2f#\	tu-	2dd\	tu-	4f#/	.	4dd\	.	1ryy	1ryy
.	.	.	16a/	.	.	.	.	.	.	.	.	.	.	.	.	.	.	.	.
8D\	.	.	16f#/	.	.	.	.	.	.	.	.	.	.	.	.	.	.	.	.
.	.	.	16a/	.	.	.	.	.	.	.	.	.	.	.	.	.	.	.	.
8D\	.	.	16f#/	.	.	.	.	.	.	.	.	.	.	8f#/L	.	8dd\L	.	.	.
.	.	.	16a/	.	.	.	.	.	.	.	.	.	.	.	.	.	.	.	.
8D\J	.	.	16f#/	.	.	.	.	.	.	.	.	.	.	8f#/J	.	8dd\J	.	.	.
.	.	.	16a/JJ	.	.	.	.	.	.	.	.	.	.	.	.	.	.	.	.
8D\L	.	.	16f#/LL	.	.	4D\	-os	4A\	-os	4f#\	-os	4dd\	-os	4f#/	.	4dd\	.	.	.
.	.	.	16a/	.	.	.	.	.	.	.	.	.	.	.	.	.	.	.	.
8D\	.	.	16f#/	.	.	.	.	.	.	.	.	.	.	.	.	.	.	.	.
.	.	.	16a/	.	.	.	.	.	.	.	.	.	.	.	.	.	.	.	.
8D\	.	.	16f#/	.	.	4D\	Sca-	4A\	Sca-	4f#\	Sca-	4dd\	Sca-	4f#/	.	4dd\	.	.	.
.	.	.	16a/	.	.	.	.	.	.	.	.	.	.	.	.	.	.	.	.
8D\J	.	.	16f#/	.	.	.	.	.	.	.	.	.	.	.	.	.	.	.	.
.	.	.	16a/JJ	.	.	.	.	.	.	.	.	.	.	.	.	.	.	.	.
=31	=31	=31	=31	=31	=31	=31	=31	=31	=31	=31	=31	=31	=31	=31	=31	=31	=31	=31	=31
8D\L	.	.	16f#/LL	.	1ryy	2D\	-bel-	2A\	-bel-	2f#\	-bel-	2dd\	-bel-	2f#/	.	2dd\	.	1ryy	1ryy
.	.	.	16a/	.	.	.	.	.	.	.	.	.	.	.	.	.	.	.	.
8D\	.	.	16f#/	.	.	.	.	.	.	.	.	.	.	.	.	.	.	.	.
.	.	.	16a/	.	.	.	.	.	.	.	.	.	.	.	.	.	.	.	.
8D\	.	.	16f#/	.	.	.	.	.	.	.	.	.	.	.	.	.	.	.	.
.	.	.	16a/	.	.	.	.	.	.	.	.	.	.	.	.	.	.	.	.
8D\J	.	.	16f#/	.	.	.	.	.	.	.	.	.	.	.	.	.	.	.	.
.	.	.	16a/JJ	.	.	.	.	.	.	.	.	.	.	.	.	.	.	.	.
8D\L	.	.	16f#/LL	.	.	2D\	-lum	2A\	-lum	2f#\	-lum	2dd\	-lum	4f#/	.	4dd\	.	.	.
.	.	.	16a/	.	.	.	.	.	.	.	.	.	.	.	.	.	.	.	.
8D\	.	.	16f#/	.	.	.	.	.	.	.	.	.	.	.	.	.	.	.	.
.	.	.	16a/	.	.	.	.	.	.	.	.	.	.	.	.	.	.	.	.
8D\	.	.	16f#/	.	.	.	.	.	.	.	.	.	.	4f#/	.	4dd\	.	.	.
.	.	.	16a/	.	.	.	.	.	.	.	.	.	.	.	.	.	.	.	.
8D\J	.	.	16f#/	.	.	.	.	.	.	.	.	.	.	.	.	.	.	.	.
.	.	.	16a/JJ	.	.	.	.	.	.	.	.	.	.	.	.	.	.	.	.
*	*	*	*Xtremolo	*	*	*	*	*	*	*	*	*	*	*	*	*	*	*	*
!	!	!	!LO:LB:g=original	!	!	!	!	!	!	!	!	!	!	!	!	!	!	!	!
=32	=32	=32	=32	=32	=32	=32	=32	=32	=32	=32	=32	=32	=32	=32	=32	=32	=32	=32	=32
8C#/L	6_ 5_	.	16e/LL	.	1ryy	2C#/	pe-	2A\	pe-	2g\	pe-	2ee\	pe-	4a/	.	4ee\	.	1ryy	1ryy
.	.	.	16a/	.	.	.	.	.	.	.	.	.	.	.	.	.	.	.	.
8C#/	.	.	16e/	.	.	.	.	.	.	.	.	.	.	.	.	.	.	.	.
.	.	.	16a/JJ	.	.	.	.	.	.	.	.	.	.	.	.	.	.	.	.
8C#/	.	.	16e/LL	.	.	.	.	.	.	.	.	.	.	8a/L	.	8ee\L	.	.	.
.	.	.	16a/	.	.	.	.	.	.	.	.	.	.	.	.	.	.	.	.
8C#/J	.	.	16e/	.	.	.	.	.	.	.	.	.	.	8a/J	.	8ee\J	.	.	.
.	.	.	16a/JJ	.	.	.	.	.	.	.	.	.	.	.	.	.	.	.	.
*	*	*	*tremolo	*	*	*	*	*	*	*	*	*	*	*	*	*	*	*	*
8C#/L	.	.	16e/LL	.	.	4C#/	-dum	4A\	-dum	4g\	-dum	4ee\	-dum	4a/	.	4ee\	.	.	.
.	.	.	16a/	.	.	.	.	.	.	.	.	.	.	.	.	.	.	.	.
8C#/	.	.	16e/	.	.	.	.	.	.	.	.	.	.	.	.	.	.	.	.
.	.	.	16a/	.	.	.	.	.	.	.	.	.	.	.	.	.	.	.	.
8C#/	.	.	16e/	.	.	4C#/	tu-	4A\	tu-	4g\	tu-	4ee\	tu-	4a/	.	4ee\	.	.	.
.	.	.	16a/	.	.	.	.	.	.	.	.	.	.	.	.	.	.	.	.
8C#/J	.	.	16e/	.	.	.	.	.	.	.	.	.	.	.	.	.	.	.	.
.	.	.	16a/JJ	.	.	.	.	.	.	.	.	.	.	.	.	.	.	.	.
!	!	!	!	!	!	!	!	!	!	!	!	!	!	!	!	!LO:LB:g=original	!	!	!
=33	=33	=33	=33	=33	=33	=33	=33	=33	=33	=33	=33	=33	=33	=33	=33	=33	=33	=33	=33
8C#/L	.	.	16e/LL	.	1ryy	2C#/	-o-	2A\	-o-	2g\	-o-	2ee\	-o-	2a/	.	2ee\	.	1ryy	1ryy
.	.	.	16a/	.	.	.	.	.	.	.	.	.	.	.	.	.	.	.	.
8C#/	.	.	16e/	.	.	.	.	.	.	.	.	.	.	.	.	.	.	.	.
.	.	.	16a/	.	.	.	.	.	.	.	.	.	.	.	.	.	.	.	.
8C#/	.	.	16e/	.	.	.	.	.	.	.	.	.	.	.	.	.	.	.	.
.	.	.	16a/	.	.	.	.	.	.	.	.	.	.	.	.	.	.	.	.
8C#/J	.	.	16e/	.	.	.	.	.	.	.	.	.	.	.	.	.	.	.	.
.	.	.	16a/JJ	.	.	.	.	.	.	.	.	.	.	.	.	.	.	.	.
8C#/L	.	.	16e/LL	.	.	2C#/	-rum	2A\	-rum	2g\	-rum	2ee\	-rum	4a/	.	4ee\	.	.	.
.	.	.	16a/	.	.	.	.	.	.	.	.	.	.	.	.	.	.	.	.
8C#/	.	.	16e/	.	.	.	.	.	.	.	.	.	.	.	.	.	.	.	.
.	.	.	16a/	.	.	.	.	.	.	.	.	.	.	.	.	.	.	.	.
8C#/	.	.	16e/	.	.	.	.	.	.	.	.	.	.	4a/	.	4ee\	.	.	.
.	.	.	16a/	.	.	.	.	.	.	.	.	.	.	.	.	.	.	.	.
8C#/J	.	.	16e/	.	.	.	.	.	.	.	.	.	.	.	.	.	.	.	.
.	x x	.	16a/JJ	.	.	.	.	.	.	.	.	.	.	.	.	.	.	.	.
!	!	!	!	!	!	!	!	!	!	!	!	!	!	!LO:LB:g=original	!	!	!	!	!
=34	=34	=34	=34	=34	=34	=34	=34	=34	=34	=34	=34	=34	=34	=34	=34	=34	=34	=34	=34
8D\L	.	.	16f#/LL	.	1ryy	2D\	Do-	2A\	Do-	2f#\	Do-	2dd\	Do-	4dd\	.	4ff#\	.	1ryy	1ryy
.	.	.	16a/	.	.	.	.	.	.	.	.	.	.	.	.	.	.	.	.
8D\	.	.	16f#/	.	.	.	.	.	.	.	.	.	.	.	.	.	.	.	.
.	.	.	16a/	.	.	.	.	.	.	.	.	.	.	.	.	.	.	.	.
8D\	.	.	16f#/	.	.	.	.	.	.	.	.	.	.	8dd\L	.	8ff#\L	.	.	.
.	.	.	16a/	.	.	.	.	.	.	.	.	.	.	.	.	.	.	.	.
8D\J	.	.	16f#/	.	.	.	.	.	.	.	.	.	.	8dd\J	.	8ff#\J	.	.	.
.	.	.	16a/JJ	.	.	.	.	.	.	.	.	.	.	.	.	.	.	.	.
8D\L	.	.	16f#/LL	.	.	2D\	-ec	2d\	-nec	2a\	-nec	2ff#\	-nec	4dd\	.	4ff#\	.	.	.
.	.	.	16a/	.	.	.	.	.	.	.	.	.	.	.	.	.	.	.	.
8D\	.	.	16f#/	.	.	.	.	.	.	.	.	.	.	.	.	.	.	.	.
.	.	.	16a/	.	.	.	.	.	.	.	.	.	.	.	.	.	.	.	.
8D\	.	.	16f#/	.	.	.	.	.	.	.	.	.	.	4dd\	.	4ff#\	.	.	.
.	.	.	16a/	.	.	.	.	.	.	.	.	.	.	.	.	.	.	.	.
8D\J	.	.	16f#/	.	.	.	.	.	.	.	.	.	.	.	.	.	.	.	.
.	.	.	16a/JJ	.	.	.	.	.	.	.	.	.	.	.	.	.	.	.	.
*Xtremolo	*	*	*	*	*	*	*	*	*	*	*	*	*	*	*	*	*	*	*
!LO:LB:g=original	!	!	!	!	!	!	!	!LO:LB:g=original	!	!LO:LB:g=original	!	!	!	!	!	!	!	!	!
=35	=35	=35	=35	=35	=35	=35	=35	=35	=35	=35	=35	=35	=35	=35	=35	=35	=35	=35	=35
8D\L	.	.	16f#/LL	.	1ryy	2D\	po-	2d\	po-	2a\	po-	2ff#\	po-	1dd	.	1ff#	.	1ryy	1ryy
.	.	.	16a/	.	.	.	.	.	.	.	.	.	.	.	.	.	.	.	.
8D\	.	.	16f#/	.	.	.	.	.	.	.	.	.	.	.	.	.	.	.	.
.	.	.	16a/	.	.	.	.	.	.	.	.	.	.	.	.	.	.	.	.
8D\	.	.	16f#/	.	.	.	.	.	.	.	.	.	.	.	.	.	.	.	.
.	.	.	16a/	.	.	.	.	.	.	.	.	.	.	.	.	.	.	.	.
8D\J	.	.	16f#/	.	.	.	.	.	.	.	.	.	.	.	.	.	.	.	.
.	.	.	16a/JJ	.	.	.	.	.	.	.	.	.	.	.	.	.	.	.	.
*tremolo	*	*	*	*	*	*	*	*	*	*	*	*	*	*	*	*	*	*	*
8D\L	.	.	16f#/LL	.	.	2D\	-nam	2d\	-nam	2a\	-nam	2ff#\	-nam	.	.	.	.	.	.
.	.	.	16a/	.	.	.	.	.	.	.	.	.	.	.	.	.	.	.	.
8D\	.	.	16f#/	.	.	.	.	.	.	.	.	.	.	.	.	.	.	.	.
.	.	.	16a/	.	.	.	.	.	.	.	.	.	.	.	.	.	.	.	.
8D\	.	.	16f#/	.	.	.	.	.	.	.	.	.	.	.	.	.	.	.	.
.	.	.	16a/	.	.	.	.	.	.	.	.	.	.	.	.	.	.	.	.
8D\J	.	.	16f#/	.	.	.	.	.	.	.	.	.	.	.	.	.	.	.	.
.	.	.	16a/JJ	.	.	.	.	.	.	.	.	.	.	.	.	.	.	.	.
!	!	!	!	!	!	!LO:LB:g=original	!	!	!	!	!	!LO:LB:g=original	!	!	!	!	!	!	!
=36	=36	=36	=36	=36	=36	=36	=36	=36	=36	=36	=36	=36	=36	=36	=36	=36	=36	=36	=36
8C#/L	x 6_	.	16e/LL	.	1ryy	2C#/	i-	2e\	i-	2a\	i-	2ee\	i-	4a/	.	4ee\	.	1ryy	1ryy
.	.	.	16a/	.	.	.	.	.	.	.	.	.	.	.	.	.	.	.	.
8C#/	.	.	16e/	.	.	.	.	.	.	.	.	.	.	.	.	.	.	.	.
.	.	.	16a/	.	.	.	.	.	.	.	.	.	.	.	.	.	.	.	.
8C#/	.	.	16e/	.	.	.	.	.	.	.	.	.	.	8a/L	.	8ee\L	.	.	.
.	.	.	16a/	.	.	.	.	.	.	.	.	.	.	.	.	.	.	.	.
8C#/J	.	.	16e/	.	.	.	.	.	.	.	.	.	.	8a/J	.	8ee\J	.	.	.
.	.	.	16a/JJ	.	.	.	.	.	.	.	.	.	.	.	.	.	.	.	.
8C#/L	.	.	16e/LL	.	.	2C#/	-ni-	2e\	-ni-	2a\	-ni-	2ee\	-ni-	4a/	.	4ee\	.	.	.
.	.	.	16a/	.	.	.	.	.	.	.	.	.	.	.	.	.	.	.	.
8C#/	.	.	16e/	.	.	.	.	.	.	.	.	.	.	.	.	.	.	.	.
.	.	.	16a/	.	.	.	.	.	.	.	.	.	.	.	.	.	.	.	.
8C#/	.	.	16e/	.	.	.	.	.	.	.	.	.	.	4a/	.	4ee\	.	.	.
.	.	.	16a/	.	.	.	.	.	.	.	.	.	.	.	.	.	.	.	.
8C#/J	.	.	16e/	.	.	.	.	.	.	.	.	.	.	.	.	.	.	.	.
.	.	.	16a/JJ	.	.	.	.	.	.	.	.	.	.	.	.	.	.	.	.
=37	=37	=37	=37	=37	=37	=37	=37	=37	=37	=37	=37	=37	=37	=37	=37	=37	=37	=37	=37
8C#/L	.	.	16e/LL	.	1ryy	2C#/	-mi-	2e\	-mi-	2a\	-mi-	2ee\	-mi-	1a	.	1ee	.	1ryy	1ryy
.	.	.	16a/	.	.	.	.	.	.	.	.	.	.	.	.	.	.	.	.
8C#/	.	.	16e/	.	.	.	.	.	.	.	.	.	.	.	.	.	.	.	.
.	.	.	16a/	.	.	.	.	.	.	.	.	.	.	.	.	.	.	.	.
8C#/	.	.	16e/	.	.	.	.	.	.	.	.	.	.	.	.	.	.	.	.
.	.	.	16a/	.	.	.	.	.	.	.	.	.	.	.	.	.	.	.	.
8C#/J	.	.	16e/	.	.	.	.	.	.	.	.	.	.	.	.	.	.	.	.
.	.	.	16a/JJ	.	.	.	.	.	.	.	.	.	.	.	.	.	.	.	.
8C#/L	.	.	16e/LL	.	.	2C#/	-cos	2e\	-cos	2a\	-cos	2ee\	-cos	.	.	.	.	.	.
.	.	.	16a/	.	.	.	.	.	.	.	.	.	.	.	.	.	.	.	.
8C#/	.	.	16e/	.	.	.	.	.	.	.	.	.	.	.	.	.	.	.	.
.	.	.	16a/	.	.	.	.	.	.	.	.	.	.	.	.	.	.	.	.
8C#/	.	.	16e/	.	.	.	.	.	.	.	.	.	.	.	.	.	.	.	.
.	.	.	16a/	.	.	.	.	.	.	.	.	.	.	.	.	.	.	.	.
8C#/J	.	.	16e/	.	.	.	.	.	.	.	.	.	.	.	.	.	.	.	.
.	x x	.	16a/JJ	.	.	.	.	.	.	.	.	.	.	.	.	.	.	.	.
*	*	*	*Xtremolo	*	*	*	*	*	*	*	*	*	*	*	*	*	*	*	*
!	!	!	!LO:LB:g=original	!	!	!	!	!	!	!	!	!	!	!	!	!	!	!	!
=38	=38	=38	=38	=38	=38	=38	=38	=38	=38	=38	=38	=38	=38	=38	=38	=38	=38	=38	=38
8G#X\L	6_ 5_	.	16e/LL	.	1ryy	2G#X\	tu-	2e\	tu-	2b\	tu-	2dd\	tu-	4ee\	.	4ee\	.	1ryy	1ryy
.	.	.	16b/	.	.	.	.	.	.	.	.	.	.	.	.	.	.	.	.
8G#X\	.	.	16e/	.	.	.	.	.	.	.	.	.	.	.	.	.	.	.	.
.	.	.	16b/JJ	.	.	.	.	.	.	.	.	.	.	.	.	.	.	.	.
8G#X\	.	.	16e/LL	.	.	.	.	.	.	.	.	.	.	8ee\L	.	8ee\L	.	.	.
.	.	.	16b/	.	.	.	.	.	.	.	.	.	.	.	.	.	.	.	.
8G#X\J	.	.	16e/	.	.	.	.	.	.	.	.	.	.	8ee\J	.	8ee\J	.	.	.
.	.	.	16b/JJ	.	.	.	.	.	.	.	.	.	.	.	.	.	.	.	.
*	*	*	*tremolo	*	*	*	*	*	*	*	*	*	*	*	*	*	*	*	*
8G#\L	.	.	16e/LL	.	.	4G#\	-os	4e\	-os	4b\	-os	4dd\	-os	4ee\	.	4ee\	.	.	.
.	.	.	16b/	.	.	.	.	.	.	.	.	.	.	.	.	.	.	.	.
8G#\	.	.	16e/	.	.	.	.	.	.	.	.	.	.	.	.	.	.	.	.
.	.	.	16b/	.	.	.	.	.	.	.	.	.	.	.	.	.	.	.	.
8G#\	.	.	16e/	.	.	4G#\	Sca-	4e\	Sca-	4b\	Sca-	4dd\	Sca-	4ee\	.	4ee\	.	.	.
.	.	.	16b/	.	.	.	.	.	.	.	.	.	.	.	.	.	.	.	.
8G#\J	.	.	16e/	.	.	.	.	.	.	.	.	.	.	.	.	.	.	.	.
.	.	.	16b/JJ	.	.	.	.	.	.	.	.	.	.	.	.	.	.	.	.
=39	=39	=39	=39	=39	=39	=39	=39	=39	=39	=39	=39	=39	=39	=39	=39	=39	=39	=39	=39
8G\L	.	.	16e/LL	.	1ryy	2G\	-bel-	2e\	-bel-	2b\	-bel-	2dd\	-bel-	1ee	.	1ee	.	1ryy	1ryy
.	.	.	16b/	.	.	.	.	.	.	.	.	.	.	.	.	.	.	.	.
8G\	.	.	16e/	.	.	.	.	.	.	.	.	.	.	.	.	.	.	.	.
.	.	.	16b/	.	.	.	.	.	.	.	.	.	.	.	.	.	.	.	.
8G\	.	.	16e/	.	.	.	.	.	.	.	.	.	.	.	.	.	.	.	.
.	.	.	16b/	.	.	.	.	.	.	.	.	.	.	.	.	.	.	.	.
8G\J	.	.	16e/	.	.	.	.	.	.	.	.	.	.	.	.	.	.	.	.
.	.	.	16b/JJ	.	.	.	.	.	.	.	.	.	.	.	.	.	.	.	.
8G\L	.	.	16e/LL	.	.	2G\	-lum	2e\	-lum	2b\	-lum	2dd\	-lum	.	.	.	.	.	.
.	.	.	16b/	.	.	.	.	.	.	.	.	.	.	.	.	.	.	.	.
8G\	.	.	16e/	.	.	.	.	.	.	.	.	.	.	.	.	.	.	.	.
.	.	.	16b/	.	.	.	.	.	.	.	.	.	.	.	.	.	.	.	.
8G\	.	.	16e/	.	.	.	.	.	.	.	.	.	.	.	.	.	.	.	.
.	.	.	16b/	.	.	.	.	.	.	.	.	.	.	.	.	.	.	.	.
8G\J	.	.	16e/	.	.	.	.	.	.	.	.	.	.	.	.	.	.	.	.
.	x x	.	16b/JJ	.	.	.	.	.	.	.	.	.	.	.	.	.	.	.	.
*	*	*	*Xtremolo	*	*	*	*	*	*	*	*	*	*	*	*	*	*	*	*
=40	=40	=40	=40	=40	=40	=40	=40	=40	=40	=40	=40	=40	=40	=40	=40	=40	=40	=40	=40
8A\L	.	.	16e/LL	.	1ryy	2A\	pe-	2e\	pe-	2a\	pe-	2cc#\	pe-	1a	.	1ee	.	1ryy	1ryy
.	.	.	16e/	.	.	.	.	.	.	.	.	.	.	.	.	.	.	.	.
8A\	.	.	16e/	.	.	.	.	.	.	.	.	.	.	.	.	.	.	.	.
.	.	.	16e/JJ	.	.	.	.	.	.	.	.	.	.	.	.	.	.	.	.
*	*	*	*tremolo	*	*	*	*	*	*	*	*	*	*	*	*	*	*	*	*
8A\	.	.	16e/LL	.	.	.	.	.	.	.	.	.	.	.	.	.	.	.	.
.	.	.	16e/	.	.	.	.	.	.	.	.	.	.	.	.	.	.	.	.
8A\J	.	.	16e/	.	.	.	.	.	.	.	.	.	.	.	.	.	.	.	.
.	.	.	16e/JJ	.	.	.	.	.	.	.	.	.	.	.	.	.	.	.	.
8A\L	.	.	16A/LL	.	.	4A\	-dum	4e\	-dum	4a\	-dum	4cc#\	-dum	.	.	.	.	.	.
.	.	.	16A/	.	.	.	.	.	.	.	.	.	.	.	.	.	.	.	.
8A\	.	.	16A/	.	.	.	.	.	.	.	.	.	.	.	.	.	.	.	.
.	.	.	16A/JJ	.	.	.	.	.	.	.	.	.	.	.	.	.	.	.	.
8A\	.	.	16A/LL	.	.	4A\	tu-	4e\	tu-	4a\	tu-	4cc#\	tu-	.	.	.	.	.	.
.	.	.	16A/	.	.	.	.	.	.	.	.	.	.	.	.	.	.	.	.
8A\J	.	.	16A/	.	.	.	.	.	.	.	.	.	.	.	.	.	.	.	.
.	.	.	16A/JJ	.	.	.	.	.	.	.	.	.	.	.	.	.	.	.	.
=41	=41	=41	=41	=41	=41	=41	=41	=41	=41	=41	=41	=41	=41	=41	=41	=41	=41	=41	=41
8A\L	.	.	16c#/LL	.	1ryy	1A	-o-	1e	-o-	1a	-o-	1cc#	-o-	1a	.	1ee	.	1ryy	1ryy
.	.	.	16c#/	.	.	.	.	.	.	.	.	.	.	.	.	.	.	.	.
8A\	.	.	16c#/	.	.	.	.	.	.	.	.	.	.	.	.	.	.	.	.
.	.	.	16c#/JJ	.	.	.	.	.	.	.	.	.	.	.	.	.	.	.	.
8A\	.	.	16c#/LL	.	.	.	.	.	.	.	.	.	.	.	.	.	.	.	.
.	.	.	16c#/	.	.	.	.	.	.	.	.	.	.	.	.	.	.	.	.
8A\J	.	.	16c#/	.	.	.	.	.	.	.	.	.	.	.	.	.	.	.	.
.	.	.	16c#/JJ	.	.	.	.	.	.	.	.	.	.	.	.	.	.	.	.
8A\L	.	.	16e/LL	.	.	.	.	.	.	.	.	.	.	.	.	.	.	.	.
.	.	.	16e/	.	.	.	.	.	.	.	.	.	.	.	.	.	.	.	.
8A\	.	.	16e/	.	.	.	.	.	.	.	.	.	.	.	.	.	.	.	.
.	.	.	16e/JJ	.	.	.	.	.	.	.	.	.	.	.	.	.	.	.	.
8A\	.	.	16e/LL	.	.	.	.	.	.	.	.	.	.	.	.	.	.	.	.
.	.	.	16e/	.	.	.	.	.	.	.	.	.	.	.	.	.	.	.	.
8A\J	.	.	16e/	.	.	.	.	.	.	.	.	.	.	.	.	.	.	.	.
.	.	.	16e/JJ	.	.	.	.	.	.	.	.	.	.	.	.	.	.	.	.
*Xtremolo	*	*	*	*	*	*	*	*	*	*	*	*	*	*	*	*	*	*	*
=42	=42	=42	=42	=42	=42	=42	=42	=42	=42	=42	=42	=42	=42	=42	=42	=42	=42	=42	=42
8A\L	.	.	16a/LL	.	1ryy	4A\	-rum	4e\	-rum	4a\	-rum	4cc#\	-rum	4a/	.	4aa\	.	1ryy	1ryy
.	.	.	16a/	.	.	.	.	.	.	.	.	.	.	.	.	.	.	.	.
8A\	.	.	16a/	.	.	.	.	.	.	.	.	.	.	.	.	.	.	.	.
.	.	.	16a/JJ	.	.	.	.	.	.	.	.	.	.	.	.	.	.	.	.
!	!	!	!	!	!	!	!	!LO:LB:g=original	!	!LO:LB:g=original	!	!	!	!	!	!	!	!	!
8c#'\	.	.	16cc#\LL	.	.	4c#\	Sca-	4c#\	Sca-	4cc#\	Sca-	4cc#\	Sca-	4r	.	4r	.	.	.
.	.	.	16cc#\	.	.	.	.	.	.	.	.	.	.	.	.	.	.	.	.
8c#'\J	.	.	16cc#\	.	.	.	.	.	.	.	.	.	.	.	.	.	.	.	.
.	.	.	16cc#\JJ	.	.	.	.	.	.	.	.	.	.	.	.	.	.	.	.
!	!	!	!	!	!	!	!	!	!	!	!	!	!	!	!	!LO:LB:g=original	!	!	!
8A'\L	.	.	16a/LL	.	.	4A\	-bel-	4A\	-bel-	4a\	-bel-	4a\	-bel-	4a/	.	4aa\	.	.	.
.	.	.	16a/	.	.	.	.	.	.	.	.	.	.	.	.	.	.	.	.
8A'\	.	.	16a/	.	.	.	.	.	.	.	.	.	.	.	.	.	.	.	.
.	.	.	16a/JJ	.	.	.	.	.	.	.	.	.	.	.	.	.	.	.	.
8c#'\	.	.	16cc#\LL	.	.	4c#\	-lum	4c#\	-lum	4cc#\	-lum	4cc#\	-lum	4r	.	4r	.	.	.
.	.	.	16cc#\	.	.	.	.	.	.	.	.	.	.	.	.	.	.	.	.
8c#'\J	.	.	16cc#\	.	.	.	.	.	.	.	.	.	.	.	.	.	.	.	.
.	.	.	16cc#\JJ	.	.	.	.	.	.	.	.	.	.	.	.	.	.	.	.
!LO:LB:g=original	!	!	!	!	!	!LO:LB:g=original	!	!	!	!	!	!LO:LB:g=original	!	!LO:LB:g=original	!	!	!	!	!
=43	=43	=43	=43	=43	=43	=43	=43	=43	=43	=43	=43	=43	=43	=43	=43	=43	=43	=43	=43
8e\L	.	.	16ee\LL	.	1ryy	2e\	pe-	2e\	pe-	2ee\	pe-	2ee\	pe-	2ee\	.	2ee\	.	1ryy	1ryy
.	.	.	16ee\	.	.	.	.	.	.	.	.	.	.	.	.	.	.	.	.
8e\	.	.	16ee\	.	.	.	.	.	.	.	.	.	.	.	.	.	.	.	.
.	.	.	16ee\	.	.	.	.	.	.	.	.	.	.	.	.	.	.	.	.
8e\	.	.	16ee\	.	.	.	.	.	.	.	.	.	.	.	.	.	.	.	.
.	.	.	16ee\	.	.	.	.	.	.	.	.	.	.	.	.	.	.	.	.
8e\J	.	.	16ee\	.	.	.	.	.	.	.	.	.	.	.	.	.	.	.	.
.	.	.	16ee\JJ	.	.	.	.	.	.	.	.	.	.	.	.	.	.	.	.
8c#\L	.	.	16cc#\LL	.	.	4c#\	-dum	4c#\	-dum	4cc#\	-dum	4cc#\	-dum	4r	.	4r	.	.	.
.	.	.	16cc#\	.	.	.	.	.	.	.	.	.	.	.	.	.	.	.	.
8c#\	.	.	16cc#\	.	.	.	.	.	.	.	.	.	.	.	.	.	.	.	.
.	.	.	16cc#\JJ	.	.	.	.	.	.	.	.	.	.	.	.	.	.	.	.
8A\	.	.	16a/LL	.	.	4A\	tu-	4A\	tu-	4a\	tu-	4a\	tu-	4a/	.	4aa\	.	.	.
.	.	.	16a/	.	.	.	.	.	.	.	.	.	.	.	.	.	.	.	.
8A\J	.	.	16a/	.	.	.	.	.	.	.	.	.	.	.	.	.	.	.	.
.	.	.	16a/JJ	.	.	.	.	.	.	.	.	.	.	.	.	.	.	.	.
!	!	!	!LO:LB:g=original	!	!	!	!	!	!	!	!	!	!	!	!	!	!	!	!
*	*	*	*Xtremolo	*	*	*	*	*	*	*	*	*	*	*	*	*	*	*	*
=44	=44	=44	=44	=44	=44	=44	=44	=44	=44	=44	=44	=44	=44	=44	=44	=44	=44	=44	=44
*tremolo	*	*	*	*	*	*	*	*	*	*	*	*	*	*	*	*	*	*	*
8e\L	x 4	.	16cc#\LL	.	1ryy	1E	-o-	1e	-o-	2a\	-o-	2cc#\	-o-	4ee\	.	4ee\	.	1ryy	1ryy
.	.	.	16cc#\	.	.	.	.	.	.	.	.	.	.	.	.	.	.	.	.
8e\	.	.	16cc#\	.	.	.	.	.	.	.	.	.	.	.	.	.	.	.	.
.	.	.	16cc#\JJ	.	.	.	.	.	.	.	.	.	.	.	.	.	.	.	.
*	*	*	*tremolo	*	*	*	*	*	*	*	*	*	*	*	*	*	*	*	*
8e\	.	.	16cc#\LL	.	.	.	.	.	.	.	.	.	.	8ee\L	.	8ee\L	.	.	.
.	.	.	16cc#\	.	.	.	.	.	.	.	.	.	.	.	.	.	.	.	.
8e\J	.	.	16cc#\	.	.	.	.	.	.	.	.	.	.	8ee\J	.	8ee\J	.	.	.
.	.	.	16cc#\JJ	.	.	.	.	.	.	.	.	.	.	.	.	.	.	.	.
8E\L	x #	.	16b\LL	.	.	.	.	.	.	2g#X\	.	2b\	.	4ee\	.	4ee\	.	.	.
.	.	.	16b\	.	.	.	.	.	.	.	.	.	.	.	.	.	.	.	.
8E\	.	.	16b\	.	.	.	.	.	.	.	.	.	.	.	.	.	.	.	.
.	.	.	16b\JJ	.	.	.	.	.	.	.	.	.	.	.	.	.	.	.	.
8E\	.	.	16b\LL	.	.	.	.	.	.	.	.	.	.	4ee\	.	4ee\	.	.	.
.	.	.	16b\	.	.	.	.	.	.	.	.	.	.	.	.	.	.	.	.
8E\J	.	.	16b\	.	.	.	.	.	.	.	.	.	.	.	.	.	.	.	.
.	.	.	16b\JJ	.	.	.	.	.	.	.	.	.	.	.	.	.	.	.	.
*Xtremolo	*	*	*Xtremolo	*	*	*	*	*	*	*	*	*	*	*	*	*	*	*	*
=45	=45	=45	=45	=45	=45	=45	=45	=45	=45	=45	=45	=45	=45	=45	=45	=45	=45	=45	=45
8A\L	.	.	4cc#\	.	1ryy	4A\	-rum	4e\	-rum	4a\	-rum	4cc#\	-rum	4a/	.	4ee\	.	1ryy	1ryy
8A\	.	.	.	.	.	.	.	.	.	.	.	.	.	.	.	.	.	.	.
8E\	.	.	4aa 4cc# 4e\	.	.	4r	.	4r	.	4r	.	4r	.	4a/	.	4ee\	.	.	.
8C#\J	.	.	.	.	.	.	.	.	.	.	.	.	.	.	.	.	.	.	.
!	!	!	!	!	!	!	!	!	!	!	!	!LO:TX:a:i:t=Solo&colon;	!	!	!	!	!	!	!
4AA/	.	.	4aa 4cc# 4e\	.	.	2r	.	2r	.	2r	.	2r	.	4a/	.	4ee\	.	.	.
!	!	!LO:DY:a:Bi:t=pio&colon;	!	!	!	!	!	!	!	!	!	!	!	!	!	!	!	!	!
4r	.	p	4r	.	.	.	.	.	.	.	.	.	.	4r	.	4r	.	.	.
=46	=46	=46	=46	=46	=46	=46	=46	=46	=46	=46	=46	=46	=46	=46	=46	=46	=46	=46	=46
!	!	!	!	!LO:DY:a:Bi:t=p&colon;	!	!	!	!	!	!LO:TX:t=P:24:problem=dopisane ołówkiem	!	!	!	!	!	!	!	!	!
4r	.	.	4r	p	1ryy	00r	.	00r	.	00r	.	2ee\	Vir-	00r	.	00r	.	1ryy	1ryy
4A\	.	.	4c#/	.	.	.	.	.	.	.	.	.	.	.	.	.	.	.	.
4G#X\	x 6	.	4B/	.	.	.	.	.	.	.	.	8ee\L	-gam	.	.	.	.	.	.
.	.	.	.	.	.	.	.	.	.	.	.	8dd\J	.	.	.	.	.	.	.
4G#\	.	.	4B/	.	.	.	.	.	.	.	.	8cc#\L	Vir-	.	.	.	.	.	.
.	.	.	.	.	.	.	.	.	.	.	.	8b\J	.	.	.	.	.	.	.
=47	=47	=47	=47	=47	=47	=47	=47	=47	=47	=47	=47	=47	=47	=47	=47	=47	=47	=47	=47
4r	.	.	4r	.	1ryy	.	.	.	.	.	.	4.a\	-tu-	.	.	.	.	1ryy	1ryy
4A\	.	.	4c#/	.	.	.	.	.	.	.	.	.	.	.	.	.	.	.	.
.	.	.	.	.	.	.	.	.	.	.	.	16b\LL	.	.	.	.	.	.	.
.	.	.	.	.	.	.	.	.	.	.	.	16cc#\JJ	.	.	.	.	.	.	.
4G#X\	x 6_	.	4B/	.	.	.	.	.	.	.	.	4b\	-tis	.	.	.	.	.	.
4G#\	.	.	4B/	.	.	.	.	.	.	.	.	4r	.	.	.	.	.	.	.
=48	=48	=48	=48	=48	=48	=48	=48	=48	=48	=48	=48	=48	=48	=48	=48	=48	=48	=48	=48
*	*	*	*	*	*	*	*	*	*	*	*	*	*ij	*	*	*	*	*	*
4r	x x	.	4r	.	1ryy	.	.	.	.	.	.	2ee\	Vir-	.	.	.	.	1ryy	1ryy
4A\	.	.	4c#/	.	.	.	.	.	.	.	.	.	.	.	.	.	.	.	.
4G#X\	x 6_	.	4B/	.	.	.	.	.	.	.	.	8ee\L	-tu-	.	.	.	.	.	.
.	.	.	.	.	.	.	.	.	.	.	.	8dd\J	.	.	.	.	.	.	.
4G#\	.	.	4B/	.	.	.	.	.	.	.	.	8cc#\L	-tis	.	.	.	.	.	.
*	*	*	*	*	*	*	*	*	*	*	*	*	*Xij	*	*	*	*	*	*
.	.	.	.	.	.	.	.	.	.	.	.	8b\J	.	.	.	.	.	.	.
!	!	!	!	!	!	!	!	!	!	!	!	!LO:LB:g=original	!	!	!	!	!	!	!
=49	=49	=49	=49	=49	=49	=49	=49	=49	=49	=49	=49	=49	=49	=49	=49	=49	=49	=49	=49
4r	x x	.	4r	.	1ryy	.	.	.	.	.	.	(4.a\	tu-	.	.	.	.	1ryy	1ryy
4A\	.	.	4c#/	.	.	.	.	.	.	.	.	.	.	.	.	.	.	.	.
.	.	.	.	.	.	.	.	.	.	.	.	16b\LL)	.	.	.	.	.	.	.
.	.	.	.	.	.	.	.	.	.	.	.	16cc#\JJ	.	.	.	.	.	.	.
4AA/	.	.	4c#/	.	.	.	.	.	.	.	.	4a\	-ae	.	.	.	.	.	.
4A\	.	.	4c#/	.	.	.	.	.	.	.	.	4r	.	.	.	.	.	.	.
!LO:LB:g=original	!	!	!	!	!	!	!	!	!	!	!	!	!	!	!	!	!	!	!
=50	=50	=50	=50	=50	=50	=50	=50	=50	=50	=50	=50	=50	=50	=50	=50	=50	=50	=50	=50
4r	.	.	4r	.	1ryy	00r	.	00r	.	00r	.	4ff#\	e-	00r	.	00r	.	1ryy	1ryy
4D\	.	.	4f#/	.	.	.	.	.	.	.	.	2ff#\	-mit-	.	.	.	.	.	.
4D\	.	.	4f#/	.	.	.	.	.	.	.	.	.	.	.	.	.	.	.	.
4D\	.	.	4f#/	.	.	.	.	.	.	.	.	8aa\L	-tet	.	.	.	.	.	.
.	.	.	.	.	.	.	.	.	.	.	.	8ff#\J	.	.	.	.	.	.	.
!	!	!	!LO:LB:g=original	!	!	!	!	!	!	!	!	!	!	!	!	!	!	!	!
=51	=51	=51	=51	=51	=51	=51	=51	=51	=51	=51	=51	=51	=51	=51	=51	=51	=51	=51	=51
4r	.	.	4r	.	1ryy	.	.	.	.	.	.	8ee\	Do-	.	.	.	.	1ryy	1ryy
.	.	.	.	.	.	.	.	.	.	.	.	8cc#\	-mi-	.	.	.	.	.	.
4C#/	x 6_	.	4e/	.	.	.	.	.	.	.	.	4a\	-nus	.	.	.	.	.	.
4C#/	.	.	4e/	.	.	.	.	.	.	.	.	4r	.	.	.	.	.	.	.
4C#/	.	.	4e/	.	.	.	.	.	.	.	.	8cc#\L	Do-	.	.	.	.	.	.
.	.	.	.	.	.	.	.	.	.	.	.	8ee\J	.	.	.	.	.	.	.
=52	=52	=52	=52	=52	=52	=52	=52	=52	=52	=52	=52	=52	=52	=52	=52	=52	=52	=52	=52
4r	x x	.	4r	.	1ryy	.	.	.	.	.	.	8ee\L	-mi-	.	.	.	.	1ryy	1ryy
.	.	.	.	.	.	.	.	.	.	.	.	8dd\J	.	.	.	.	.	.	.
4D\	x 6	.	4f#/	.	.	.	.	.	.	.	.	2dd\	-nus	.	.	.	.	.	.
4D\	.	.	4f#/	.	.	.	.	.	.	.	.	.	.	.	.	.	.	.	.
4D#X\	x 5	.	4f#/	.	.	.	.	.	.	.	.	4cc#\	ex	.	.	.	.	.	.
=53	=53	=53	=53	=53	=53	=53	=53	=53	=53	=53	=53	=53	=53	=53	=53	=53	=53	=53	=53
4E\	x 4_	.	4e/	.	1ryy	.	.	.	.	.	.	2cc#\	Si-	.	.	.	.	1ryy	1ryy
4E\	.	.	4e/	.	.	.	.	.	.	.	.	.	.	.	.	.	.	.	.
4EE/	x #	.	4e/	.	.	.	.	.	.	.	.	4b\	-on	.	.	.	.	.	.
4E\	.	.	4r	.	.	.	.	.	.	.	.	4r	.	.	.	.	.	.	.
!	!	!	!LO:TX:b:i:t=Verte	!	!	!	!	!	!	!	!	!	!	!	!	!	!	!	!
!	!	!	!LO:PB:g=original	!	!	!	!	!	!	!	!	!LO:LB:g=original	!	!	!	!	!	!	!
=54	=54	=54	=54	=54	=54	=54	=54	=54	=54	=54	=54	=54	=54	=54	=54	=54	=54	=54	=54
4r	.	.	4r	.	1ryy	00r	.	00r	.	00r	.	2.dd#\	Do-	00r	.	00r	.	1ryy	1ryy
4A\	4#r_ 2_	.	4f#/	.	.	.	.	.	.	.	.	.	.	.	.	.	.	.	.
4A\	.	.	4f#/	.	.	.	.	.	.	.	.	.	.	.	.	.	.	.	.
4A\	.	.	4f#/	.	.	.	.	.	.	.	.	8ff#\L	-mi-	.	.	.	.	.	.
.	.	.	.	.	.	.	.	.	.	.	.	8dd#\J	.	.	.	.	.	.	.
=55	=55	=55	=55	=55	=55	=55	=55	=55	=55	=55	=55	=55	=55	=55	=55	=55	=55	=55	=55
4r	x x	.	4r	.	1ryy	.	.	.	.	.	.	8ee\L	-na-	.	.	.	.	1ryy	1ryy
.	.	.	.	.	.	.	.	.	.	.	.	8b\J	.	.	.	.	.	.	.
4GnX\	x 6_	.	4e/	.	.	.	.	.	.	.	.	4b\	-re	.	.	.	.	.	.
4G\	.	.	4e/	.	.	.	.	.	.	.	.	2r	.	.	.	.	.	.	.
4G\	.	.	4e/	.	.	.	.	.	.	.	.	.	.	.	.	.	.	.	.
=56	=56	=56	=56	=56	=56	=56	=56	=56	=56	=56	=56	=56	=56	=56	=56	=56	=56	=56	=56
4r	x x	.	4r	.	1ryy	.	.	.	.	.	.	0r	.	.	.	.	.	1ryy	1ryy
4A\	x 6	.	4f#/	.	.	.	.	.	.	.	.	.	.	.	.	.	.	.	.
4B\	x 4	.	4e/	.	.	.	.	.	.	.	.	.	.	.	.	.	.	.	.
4BB/	x #	.	4d#X/	.	.	.	.	.	.	.	.	.	.	.	.	.	.	.	.
=57	=57	=57	=57	=57	=57	=57	=57	=57	=57	=57	=57	=57	=57	=57	=57	=57	=57	=57	=57
4r	.	.	4r	.	1ryy	.	.	.	.	.	.	.	.	.	.	.	.	1ryy	1ryy
4E\	x n_	.	4B/	.	.	.	.	.	.	.	.	.	.	.	.	.	.	.	.
4E\	.	.	4B/	.	.	.	.	.	.	.	.	.	.	.	.	.	.	.	.
4E\	.	.	4B/	.	.	.	.	.	.	.	.	.	.	.	.	.	.	.	.
!LO:LB:g=original	!	!	!	!	!	!	!	!	!	!	!	!	!	!	!	!	!	!	!
=58	=58	=58	=58	=58	=58	=58	=58	=58	=58	=58	=58	=58	=58	=58	=58	=58	=58	=58	=58
*	*	*	*	*	*	*	*	*	*	*	*	*	*ij	*	*	*	*	*	*
4r	x x	.	4r	.	1ryy	00r	.	00r	.	00r	.	2.cc#\	Do-	00r	.	00r	.	1ryy	1ryy
4G\	4_ 2_	.	4e/	.	.	.	.	.	.	.	.	.	.	.	.	.	.	.	.
4G\	.	.	4e/	.	.	.	.	.	.	.	.	.	.	.	.	.	.	.	.
4G\	.	.	4e/	.	.	.	.	.	.	.	.	8ee\L	-mi-	.	.	.	.	.	.
.	.	.	.	.	.	.	.	.	.	.	.	8cc#\J	.	.	.	.	.	.	.
=59	=59	=59	=59	=59	=59	=59	=59	=59	=59	=59	=59	=59	=59	=59	=59	=59	=59	=59	=59
4r	x x	.	4r	.	1ryy	.	.	.	.	.	.	8dd\L	-na-	.	.	.	.	1ryy	1ryy
.	.	.	.	.	.	.	.	.	.	.	.	8a\J	.	.	.	.	.	.	.
4F#\	x 6_	.	4dn/	.	.	.	.	.	.	.	.	4a\	-re	.	.	.	.	.	.
*	*	*	*	*	*	*	*	*	*	*	*	*	*Xij	*	*	*	*	*	*
4F#\	.	.	4d/	.	.	.	.	.	.	.	.	2r	.	.	.	.	.	.	.
4F#\	.	.	4d/	.	.	.	.	.	.	.	.	.	.	.	.	.	.	.	.
=60	=60	=60	=60	=60	=60	=60	=60	=60	=60	=60	=60	=60	=60	=60	=60	=60	=60	=60	=60
4r	x x	.	4r	.	1ryy	.	.	.	.	.	.	1r	.	.	.	.	.	1ryy	1ryy
4G\	x 6	.	4e/	.	.	.	.	.	.	.	.	.	.	.	.	.	.	.	.
4A\	x 4	.	4d/	.	.	.	.	.	.	.	.	.	.	.	.	.	.	.	.
4AA/	x 3	.	4c#/	.	.	.	.	.	.	.	.	.	.	.	.	.	.	.	.
=61	=61	=61	=61	=61	=61	=61	=61	=61	=61	=61	=61	=61	=61	=61	=61	=61	=61	=61	=61
4r	.	.	4r	.	1ryy	.	.	.	.	.	.	2r	.	.	.	.	.	1ryy	1ryy
4D\	.	.	4A/	.	.	.	.	.	.	.	.	.	.	.	.	.	.	.	.
4D\	.	.	4A/	.	.	.	.	.	.	.	.	4r	.	.	.	.	.	.	.
4D\	.	.	4A/	.	.	.	.	.	.	.	.	4a\	in	.	.	.	.	.	.
!	!	!	!LO:LB:g=original	!	!	!	!	!	!	!	!	!	!	!	!	!	!	!	!
=62	=62	=62	=62	=62	=62	=62	=62	=62	=62	=62	=62	=62	=62	=62	=62	=62	=62	=62	=62
2C#/	6 5	.	8A/L	.	1ryy	00r	.	00r	.	00r	.	4.ee\	me-	00r	.	00r	.	1ryy	1ryy
.	.	.	8A/	.	.	.	.	.	.	.	.	.	.	.	.	.	.	.	.
.	.	.	8A/	.	.	.	.	.	.	.	.	.	.	.	.	.	.	.	.
.	.	.	8A/J	.	.	.	.	.	.	.	.	16ff#\LL	-di-	.	.	.	.	.	.
.	.	.	.	.	.	.	.	.	.	.	.	16gg\JJ	.	.	.	.	.	.	.
*	*	*	*tremolo	*	*	*	*	*	*	*	*	*	*	*	*	*	*	*	*
2D\	.	.	8A/L	.	.	.	.	.	.	.	.	4ff#\	-o	.	.	.	.	.	.
.	.	.	8A/	.	.	.	.	.	.	.	.	.	.	.	.	.	.	.	.
.	.	.	8A/	.	.	.	.	.	.	.	.	8ee\L	i-	.	.	.	.	.	.
.	.	.	8A/J	.	.	.	.	.	.	.	.	8dd\J	.	.	.	.	.	.	.
!	!	!	!	!	!	!	!	!	!	!	!	!LO:LB:g=original	!	!	!	!	!	!	!
=63	=63	=63	=63	=63	=63	=63	=63	=63	=63	=63	=63	=63	=63	=63	=63	=63	=63	=63	=63
4.E\	6_ 3_	.	8A/L	.	1ryy	.	.	.	.	.	.	2cc#\	-ni-	.	.	.	.	1ryy	1ryy
.	.	.	8A/	.	.	.	.	.	.	.	.	.	.	.	.	.	.	.	.
.	.	.	8A/	.	.	.	.	.	.	.	.	.	.	.	.	.	.	.	.
16F#\LL	.	.	8A/J	.	.	.	.	.	.	.	.	.	.	.	.	.	.	.	.
16G\JJ	.	.	.	.	.	.	.	.	.	.	.	.	.	.	.	.	.	.	.
4F#\	x 6	.	8A/L	.	.	.	.	.	.	.	.	2dd\	-mi-	.	.	.	.	.	.
.	.	.	8A/	.	.	.	.	.	.	.	.	.	.	.	.	.	.	.	.
4D\	.	.	8A/	.	.	.	.	.	.	.	.	.	.	.	.	.	.	.	.
.	.	.	8A/J	.	.	.	.	.	.	.	.	.	.	.	.	.	.	.	.
=64	=64	=64	=64	=64	=64	=64	=64	=64	=64	=64	=64	=64	=64	=64	=64	=64	=64	=64	=64
2C#/	6 5	.	8A/L	.	1ryy	.	.	.	.	.	.	(4.ee\	-co-	.	.	.	.	1ryy	1ryy
.	.	.	8A/	.	.	.	.	.	.	.	.	.	.	.	.	.	.	.	.
.	.	.	8A/	.	.	.	.	.	.	.	.	.	.	.	.	.	.	.	.
.	.	.	8A/J	.	.	.	.	.	.	.	.	16ff#\LL)	.	.	.	.	.	.	.
.	.	.	.	.	.	.	.	.	.	.	.	16gg\JJ	.	.	.	.	.	.	.
2D\	.	.	8A/L	.	.	.	.	.	.	.	.	4ff#\	-rum	.	.	.	.	.	.
.	.	.	8A/	.	.	.	.	.	.	.	.	.	.	.	.	.	.	.	.
.	.	.	8A/	.	.	.	.	.	.	.	.	8ee\L	tu-	.	.	.	.	.	.
.	.	.	8A/J	.	.	.	.	.	.	.	.	8dd\J	.	.	.	.	.	.	.
=65	=65	=65	=65	=65	=65	=65	=65	=65	=65	=65	=65	=65	=65	=65	=65	=65	=65	=65	=65
4A\	x 4	.	8A/L	.	1ryy	.	.	.	.	.	.	2dd\	-o-	.	.	.	.	1ryy	1ryy
.	.	.	8A/	.	.	.	.	.	.	.	.	.	.	.	.	.	.	.	.
4AA/	.	.	8A/	.	.	.	.	.	.	.	.	.	.	.	.	.	.	.	.
.	.	.	8A/J	.	.	.	.	.	.	.	.	.	.	.	.	.	.	.	.
*	*	*	*Xtremolo	*	*	*	*	*	*	*	*	*	*	*	*	*	*	*	*
4A\	x 3	.	4A/	.	.	.	.	.	.	.	.	4cc#\	-rum	.	.	.	.	.	.
!	!	!	!LO:TX:a:i:t=dol&colon;	!	!	!	!	!	!	!	!	!	!	!	!	!	!	!	!
4r	.	.	4e/	.	.	.	.	.	.	.	.	4r	.	.	.	.	.	.	.
!LO:LB:g=original	!	!	!	!	!	!	!	!	!	!	!	!	!	!	!	!	!	!	!
=66	=66	=66	=66	=66	=66	=66	=66	=66	=66	=66	=66	=66	=66	=66	=66	=66	=66	=66	=66
!	!	!	!	!	!	!	!	!	!	!	!	!LO:TX:b:t=P:4:problem=dopisane ołówkiem	!	!	!	!	!	!	!
4r	.	.	4.d/	.	1ryy	00r	.	00r	.	00r	.	00r	.	00r	.	00r	.	1ryy	1ryy
4C#/	x 6_	.	.	.	.	.	.	.	.	.	.	.	.	.	.	.	.	.	.
.	.	.	8c#/	.	.	.	.	.	.	.	.	.	.	.	.	.	.	.	.
4C#/	.	.	(16G#X/KL	.	.	.	.	.	.	.	.	.	.	.	.	.	.	.	.
.	.	.	8.A/)	.	.	.	.	.	.	.	.	.	.	.	.	.	.	.	.
4C#/	.	.	(16G#/K	.	.	.	.	.	.	.	.	.	.	.	.	.	.	.	.
.	.	.	8.A/J)	.	.	.	.	.	.	.	.	.	.	.	.	.	.	.	.
=67	=67	=67	=67	=67	=67	=67	=67	=67	=67	=67	=67	=67	=67	=67	=67	=67	=67	=67	=67
4r	x x	.	(4.a/	.	1ryy	.	.	.	.	.	.	.	.	.	.	.	.	1ryy	1ryy
4D\	.	.	.	.	.	.	.	.	.	.	.	.	.	.	.	.	.	.	.
.	.	.	8f#/)	.	.	.	.	.	.	.	.	.	.	.	.	.	.	.	.
.	.	.	8qqe/	.	.	.	.	.	.	.	.	.	.	.	.	.	.	.	.
4F#\	x 6_	.	4d'/	.	.	.	.	.	.	.	.	.	.	.	.	.	.	.	.
4F#\	.	.	4r	.	.	.	.	.	.	.	.	.	.	.	.	.	.	.	.
=68	=68	=68	=68	=68	=68	=68	=68	=68	=68	=68	=68	=68	=68	=68	=68	=68	=68	=68	=68
4r	x x	.	(4.b/	.	1ryy	.	.	.	.	.	.	.	.	.	.	.	.	1ryy	1ryy
4G\	x 6_	.	.	.	.	.	.	.	.	.	.	.	.	.	.	.	.	.	.
.	.	.	8g/)	.	.	.	.	.	.	.	.	.	.	.	.	.	.	.	.
4G\	.	.	(8f#/L	.	.	.	.	.	.	.	.	.	.	.	.	.	.	.	.
.	.	.	8e/)	.	.	.	.	.	.	.	.	.	.	.	.	.	.	.	.
4G\	.	.	(8d/	.	.	.	.	.	.	.	.	.	.	.	.	.	.	.	.
.	.	.	8e/J)	.	.	.	.	.	.	.	.	.	.	.	.	.	.	.	.
!	!	!	!LO:LB:g=original	!	!	!	!	!	!	!	!	!	!	!	!	!	!	!	!
=69	=69	=69	=69	=69	=69	=69	=69	=69	=69	=69	=69	=69	=69	=69	=69	=69	=69	=69	=69
4F#\	x 6	.	8f#/L	.	1ryy	.	.	.	.	.	.	.	.	.	.	.	.	1ryy	1ryy
.	.	.	8d/	.	.	.	.	.	.	.	.	.	.	.	.	.	.	.	.
4G\	x 6	.	8g/	.	.	.	.	.	.	.	.	.	.	.	.	.	.	.	.
.	.	.	8e/J	.	.	.	.	.	.	.	.	.	.	.	.	.	.	.	.
4A\	x 4	.	4d/	.	.	.	.	.	.	.	.	.	.	.	.	.	.	.	.
4AA/	x 3	.	4c#/	.	.	.	.	.	.	.	.	.	.	.	.	.	.	.	.
=70	=70	=70	=70	=70	=70	=70	=70	=70	=70	=70	=70	=70	=70	=70	=70	=70	=70	=70	=70
!LO:TX:a:i:t=tutti	!	!	!	!LO:DY:a:Bi:t=f&colon;	!	!	!	!	!	!	!	!	!	!	!	!	!	!	!
8D\L	.	.	16f#/LL	f	1ryy	2D\	Te-	2A\	Te-	2f#\	Te-	2dd\	Te-	4f#/	.	4dd\	.	1ryy	1ryy
.	.	.	16a/	.	.	.	.	.	.	.	.	.	.	.	.	.	.	.	.
8D\	.	.	16f#/	.	.	.	.	.	.	.	.	.	.	.	.	.	.	.	.
.	.	.	16a/JJ	.	.	.	.	.	.	.	.	.	.	.	.	.	.	.	.
8D\	.	.	16f#/LL	.	.	.	.	.	.	.	.	.	.	8f#/L	.	8dd\L	.	.	.
.	.	.	16a/	.	.	.	.	.	.	.	.	.	.	.	.	.	.	.	.
8D\J	.	.	16f#/	.	.	.	.	.	.	.	.	.	.	8f#/J	.	8dd\J	.	.	.
.	.	.	16a/JJ	.	.	.	.	.	.	.	.	.	.	.	.	.	.	.	.
*tremolo	*	*	*tremolo	*	*	*	*	*	*	*	*	*	*	*	*	*	*	*	*
8D\L	.	.	16f#/LL	.	.	4D\	-cum	4A\	-cum	4f#\	-cum	4dd\	-cum	4f#/	.	4dd\	.	.	.
.	.	.	16a/	.	.	.	.	.	.	.	.	.	.	.	.	.	.	.	.
8D\	.	.	16f#/	.	.	.	.	.	.	.	.	.	.	.	.	.	.	.	.
.	.	.	16a/	.	.	.	.	.	.	.	.	.	.	.	.	.	.	.	.
8D\	.	.	16f#/	.	.	4D\	prin-	4A\	pri-	4f#\	prin-	4dd\	prin-	4f#/	.	4dd\	.	.	.
.	.	.	16a/	.	.	.	.	.	.	.	.	.	.	.	.	.	.	.	.
8D\J	.	.	16f#/	.	.	.	.	.	.	.	.	.	.	.	.	.	.	.	.
.	.	.	16a/JJ	.	.	.	.	.	.	.	.	.	.	.	.	.	.	.	.
=71	=71	=71	=71	=71	=71	=71	=71	=71	=71	=71	=71	=71	=71	=71	=71	=71	=71	=71	=71
8D\L	.	.	16f#/LL	.	1ryy	4D\	-ci-	4A\	-ni-	4f#\	-ci-	4dd\	-ci-	2f#/	.	2dd\	.	1ryy	1ryy
.	.	.	16a/	.	.	.	.	.	.	.	.	.	.	.	.	.	.	.	.
8D\	.	.	16f#/	.	.	.	.	.	.	.	.	.	.	.	.	.	.	.	.
.	.	.	16a/	.	.	.	.	.	.	.	.	.	.	.	.	.	.	.	.
8D\	.	.	16f#/	.	.	4D\	-pi-	4A\	-pi-	4f#\	-pi-	4dd\	-pi-	.	.	.	.	.	.
.	.	.	16a/	.	.	.	.	.	.	.	.	.	.	.	.	.	.	.	.
8D\J	.	.	16f#/	.	.	.	.	.	.	.	.	.	.	.	.	.	.	.	.
.	.	.	16a/JJ	.	.	.	.	.	.	.	.	.	.	.	.	.	.	.	.
8D\L	.	.	16f#/LL	.	.	2D\	-um	2A\	-um	2f#\	-um	2dd\	-um	2f#/	.	2dd\	.	.	.
.	.	.	16a/	.	.	.	.	.	.	.	.	.	.	.	.	.	.	.	.
8D\	.	.	16f#/	.	.	.	.	.	.	.	.	.	.	.	.	.	.	.	.
.	.	.	16a/	.	.	.	.	.	.	.	.	.	.	.	.	.	.	.	.
8D\	.	.	16f#/	.	.	.	.	.	.	.	.	.	.	.	.	.	.	.	.
.	.	.	16a/	.	.	.	.	.	.	.	.	.	.	.	.	.	.	.	.
8D\J	.	.	16f#/	.	.	.	.	.	.	.	.	.	.	.	.	.	.	.	.
.	.	.	16a/JJ	.	.	.	.	.	.	.	.	.	.	.	.	.	.	.	.
*	*	*	*Xtremolo	*	*	*	*	*	*	*	*	*	*	*	*	*	*	*	*
!	!	!	!	!	!	!	!	!	!	!LO:LB:g=original	!	!	!	!	!	!	!	!	!
=72	=72	=72	=72	=72	=72	=72	=72	=72	=72	=72	=72	=72	=72	=72	=72	=72	=72	=72	=72
!	!	!LO:DY:a:Bi:t=p&colon;	!	!LO:DY:a:Bi:t=p&colon;	!	!	!	!	!	!	!	!LO:TX:b:t=P:2:problem=dopisane ołówkiem	!	!	!	!	!	!	!
8D\L	.	p	8ff#\	p	1ryy	0r	.	0r	.	0r	.	0r	.	0r	.	0r	.	1ryy	1ryy
8D\	.	.	8r	.	.	.	.	.	.	.	.	.	.	.	.	.	.	.	.
8D\	.	.	8dd\	.	.	.	.	.	.	.	.	.	.	.	.	.	.	.	.
8D\J	.	.	8r	.	.	.	.	.	.	.	.	.	.	.	.	.	.	.	.
8D\L	.	.	8a/	.	.	.	.	.	.	.	.	.	.	.	.	.	.	.	.
8D\	.	.	8r	.	.	.	.	.	.	.	.	.	.	.	.	.	.	.	.
8D\	.	.	8f#/	.	.	.	.	.	.	.	.	.	.	.	.	.	.	.	.
8D\J	.	.	8r	.	.	.	.	.	.	.	.	.	.	.	.	.	.	.	.
=73	=73	=73	=73	=73	=73	=73	=73	=73	=73	=73	=73	=73	=73	=73	=73	=73	=73	=73	=73
8D\L	.	.	8d/	.	1ryy	.	.	.	.	.	.	.	.	.	.	.	.	1ryy	1ryy
8D\	.	.	8r	.	.	.	.	.	.	.	.	.	.	.	.	.	.	.	.
8D\	.	.	8f#/	.	.	.	.	.	.	.	.	.	.	.	.	.	.	.	.
8D\J	.	.	8r	.	.	.	.	.	.	.	.	.	.	.	.	.	.	.	.
8D\L	.	.	8d/	.	.	.	.	.	.	.	.	.	.	.	.	.	.	.	.
8D\	.	.	8r	.	.	.	.	.	.	.	.	.	.	.	.	.	.	.	.
8D\	.	.	8f#/	.	.	.	.	.	.	.	.	.	.	.	.	.	.	.	.
8D\J	.	.	8r	.	.	.	.	.	.	.	.	.	.	.	.	.	.	.	.
*Xtremolo	*	*	*	*	*	*	*	*	*	*	*	*	*	*	*	*	*	*	*
!LO:LB:g=original	!	!	!LO:LB:g=original	!	!	!	!	!LO:LB:g=original	!	!	!	!LO:LB:g=orignal	!	!	!	!LO:LB:g=original	!	!	!
=74	=74	=74	=74	=74	=74	=74	=74	=74	=74	=74	=74	=74	=74	=74	=74	=74	=74	=74	=74
!	!	!LO:DY:a:Bi:t=for&colon;	!	!LO:DY:a:Bi:t=f&colon;	!	!	!	!	!	!	!	!	!	!	!	!	!	!	!
4A\	.	f	8ee\	f	1ryy	4A\	in	4A\	in	4g\	in	4ee\	in	4a/	.	4ee\	.	1ryy	1ryy
.	.	.	4ee\	.	.	.	.	.	.	.	.	.	.	.	.	.	.	.	.
8r	.	.	.	.	.	4A\	Di-	4A\	Di-	4g\	Di-	4ee\	Di-	8a/L	.	8ee\L	.	.	.
16A\LL	.	.	4ee\	.	.	.	.	.	.	.	.	.	.	8a/J	.	8ee\J	.	.	.
16B\JJ	.	.	.	.	.	.	.	.	.	.	.	.	.	.	.	.	.	.	.
!	!	!	!	!	!	!LO:LB:g=original	!	!	!	!	!	!	!	!LO:LB:g=original	!	!	!	!	!
8c#\L	.	.	.	.	.	4A\	-e	4A\	-e	4g\	-e	4ee\	-e	4a/	.	4ee\	.	.	.
8e\	.	.	4ee\	.	.	.	.	.	.	.	.	.	.	.	.	.	.	.	.
8A\	.	.	.	.	.	4A\	Vir-	4A\	Vir-	4g\	Vir-	4ee\	Vir-	4r	.	4r	.	.	.
8c#\J	.	.	8ee\	.	.	.	.	.	.	.	.	.	.	.	.	.	.	.	.
=75	=75	=75	=75	=75	=75	=75	=75	=75	=75	=75	=75	=75	=75	=75	=75	=75	=75	=75	=75
4d\	x 3_	.	8dd\	.	1ryy	2D\	-tu-	2A\	-tu-	2f#\	-tu-	2dd\	-tu-	4f#/	.	4dd\	.	1ryy	1ryy
.	.	.	4dd\	.	.	.	.	.	.	.	.	.	.	.	.	.	.	.	.
8r	.	.	.	.	.	.	.	.	.	.	.	.	.	8f#/L	.	8dd\L	.	.	.
*Xtuplet	*	*	*	*	*	*	*	*	*	*	*	*	*	*	*	*	*	*	*
24A\LL	.	.	4dd\	.	.	.	.	.	.	.	.	.	.	8f#/J	.	8dd\J	.	.	.
24B\	.	.	.	.	.	.	.	.	.	.	.	.	.	.	.	.	.	.	.
24c#\JJ	.	.	.	.	.	.	.	.	.	.	.	.	.	.	.	.	.	.	.
8d\L	.	.	.	.	.	2D\	-tis	2A\	-tis	2f#\	-tis	2dd\	-tis	4f#/	.	4dd\	.	.	.
8A\	.	.	4dd\	.	.	.	.	.	.	.	.	.	.	.	.	.	.	.	.
8F#\	.	.	.	.	.	.	.	.	.	.	.	.	.	4r	.	4r	.	.	.
8D\J	.	.	8dd\	.	.	.	.	.	.	.	.	.	.	.	.	.	.	.	.
=76	=76	=76	=76	=76	=76	=76	=76	=76	=76	=76	=76	=76	=76	=76	=76	=76	=76	=76	=76
4AA/	7_ 5_	.	8ee\	.	1ryy	2A\	tu-	2A\	tu-	2g\	tu-	2ee\	tu-	4a/	.	4ee\	.	1ryy	1ryy
.	.	.	4ee\	.	.	.	.	.	.	.	.	.	.	.	.	.	.	.	.
8r	.	.	.	.	.	.	.	.	.	.	.	.	.	8a/L	.	8ee\L	.	.	.
!LO:SIC:v:s=16A\LL	!	!	!	!	!	!	!	!	!	!	!	!	!	!	!	!	!	!	!
16G\LL	.	.	4ee\	.	.	.	.	.	.	.	.	.	.	8a/J	.	8ee\J	.	.	.
16B\JJ	.	.	.	.	.	.	.	.	.	.	.	.	.	.	.	.	.	.	.
8c#\L	.	.	.	.	.	4A\	-ae	4A\	-ae	4g\	-ae	4ee\	-ae	4a/	.	4ee\	.	.	.
8e\	.	.	4ee\	.	.	.	.	.	.	.	.	.	.	.	.	.	.	.	.
8A\	.	.	.	.	.	4A\	in	4A\	in	4g\	in	4ee\	in	4r	.	4r	.	.	.
8c#\J	.	.	8ee\	.	.	.	.	.	.	.	.	.	.	.	.	.	.	.	.
=77	=77	=77	=77	=77	=77	=77	=77	=77	=77	=77	=77	=77	=77	=77	=77	=77	=77	=77	=77
4d\	x_ 3_	.	8dd\	.	1ryy	2D\	Splen-	2A\	Splen-	2f#\	Splen-	2dd\	Splen-	4f#/	.	4dd\	.	1ryy	1ryy
.	.	.	4dd\	.	.	.	.	.	.	.	.	.	.	.	.	.	.	.	.
8r	.	.	.	.	.	.	.	.	.	.	.	.	.	8f#/L	.	8dd\L	.	.	.
24A\LL	.	.	4dd\	.	.	.	.	.	.	.	.	.	.	8f#/J	.	8dd\J	.	.	.
24B\	.	.	.	.	.	.	.	.	.	.	.	.	.	.	.	.	.	.	.
24c#\JJ	.	.	.	.	.	.	.	.	.	.	.	.	.	.	.	.	.	.	.
8d\L	.	.	.	.	.	4D\	-do-	4A\	-do-	4f#\	-do-	4dd\	-do-	4f#/	.	4dd\	.	.	.
8A\	.	.	4dd\	.	.	.	.	.	.	.	.	.	.	.	.	.	.	.	.
8F#\	.	.	.	.	.	4D\	-ri-	4A\	-ri-	4f#\	-ri-	4dd\	-ri-	4r	.	4r	.	.	.
8D\J	.	.	8dd\	.	.	.	.	.	.	.	.	.	.	.	.	.	.	.	.
!LO:LB:g=original	!	!	!	!	!	!	!	!	!	!	!	!	!	!	!	!	!	!	!
=78	=78	=78	=78	=78	=78	=78	=78	=78	=78	=78	=78	=78	=78	=78	=78	=78	=78	=78	=78
4AA/	7_ 5_	.	8ee\	.	1ryy	4G\	-bus	4A\	-bus	4g\	-bus	4ee\	-bus	4a/	.	4ee\	.	1ryy	1ryy
.	.	.	4ee\	.	.	.	.	.	.	.	.	.	.	.	.	.	.	.	.
8r	.	.	.	.	.	4G\	Sanc-	4A\	Sanc-	4g\	Sanc-	4ee\	Sanc-	8a/L	.	8ee\L	.	.	.
16A\LL	.	.	4ee\	.	.	.	.	.	.	.	.	.	.	8a/J	.	8ee\J	.	.	.
16B\JJ	.	.	.	.	.	.	.	.	.	.	.	.	.	.	.	.	.	.	.
8c#\L	.	.	.	.	.	2c#\	-to-	2A\	-to-	2g\	-to-	2ee\	-to-	4a/	.	4ee\	.	.	.
8e\	.	.	4ee\	.	.	.	.	.	.	.	.	.	.	.	.	.	.	.	.
8A\	.	.	.	.	.	.	.	.	.	.	.	.	.	4a/	.	8ee\L	.	.	.
8c#\J	.	.	8ee\	.	.	.	.	.	.	.	.	.	.	.	.	8ee\J	.	.	.
=79	=79	=79	=79	=79	=79	=79	=79	=79	=79	=79	=79	=79	=79	=79	=79	=79	=79	=79	=79
4d\	x x	.	4dd\	.	1ryy	4d\	-rum	4A\	-rum	4f#\	-rum	4dd\	-rum	4f#/	.	4dd\	.	1ryy	1ryy
4r	.	.	4r	.	.	4r	.	4r	.	4r	.	4r	.	4r	.	4r	.	.	.
2r	.	.	4r	.	.	2r	.	2r	.	2r	.	2r	.	2r	.	2r	.	.	.
.	.	.	4A/	.	.	.	.	.	.	.	.	.	.	.	.	.	.	.	.
!	!	!	!	!	!	!	!	!	!	!LO:LB:g=original	!	!	!	!	!	!	!	!	!
=80	=80	=80	=80	=80	=80	=80	=80	=80	=80	=80	=80	=80	=80	=80	=80	=80	=80	=80	=80
!	!	!	!	!	!	!	!	!	!	!	!	!LO:TX:b:t=P:2:problem=dopisane ołówkiem	!	!	!	!	!	!	!
0r	.	.	4d/	.	1ryy	0r	.	0r	.	0r	.	0r	.	0r	.	0r	.	1ryy	1ryy
.	.	.	4r	.	.	.	.	.	.	.	.	.	.	.	.	.	.	.	.
!	!	!	!LO:LB:g=original	!	!	!	!	!	!	!	!	!	!	!	!	!	!	!	!
.	.	.	4r	.	.	.	.	.	.	.	.	.	.	.	.	.	.	.	.
.	.	.	4A/	.	.	.	.	.	.	.	.	.	.	.	.	.	.	.	.
=81	=81	=81	=81	=81	=81	=81	=81	=81	=81	=81	=81	=81	=81	=81	=81	=81	=81	=81	=81
.	.	.	4d/	.	1ryy	.	.	.	.	.	.	.	.	.	.	.	.	1ryy	1ryy
.	.	.	4r	.	.	.	.	.	.	.	.	.	.	.	.	.	.	.	.
.	.	.	4r	.	.	.	.	.	.	.	.	.	.	.	.	.	.	.	.
.	.	.	4A/	.	.	.	.	.	.	.	.	.	.	.	.	.	.	.	.
!	!	!	!	!	!	!	!	!	!	!	!	!LO:TX:b:i:t=Verte	!	!	!	!	!	!	!
!	!	!	!	!	!	!LO:LB:g=original	!	!LO:LB:g=original	!	!	!	!LO:PB:g=original	!	!	!	!	!	!	!
=82	=82	=82	=82	=82	=82	=82	=82	=82	=82	=82	=82	=82	=82	=82	=82	=82	=82	=82	=82
4r	.	.	4d/	.	1ryy	4r	.	4r	.	4r	.	4r	.	4r	.	4r	.	1ryy	1ryy
!	!	!	!LO:TX:t=P:problem=mixed beam	!	!	!	!	!	!	!	!	!	!	!	!	!	!	!	!
4B\	.	.	8dd\L	.	.	4B\	Sanc-	4B\	Sanc-	4f#\	Sanc-	4dd\	Sanc-	4dd\	.	4ff#\	.	.	.
.	.	.	8d/J	.	.	.	.	.	.	.	.	.	.	.	.	.	.	.	.
4G\	6 5	.	8e/L	.	.	(4G\	-to-	(4B\	-to-	2e\	-to-	(4dd\	-to-	4dd\	.	2ee\	.	.	.
.	.	.	8dd/	.	.	.	.	.	.	.	.	.	.	.	.	.	.	.	.
4A\	.	.	8e/	.	.	4A\)	.	4A\)	.	.	.	4cc#\)	.	4a/	.	.	.	.	.
.	.	.	8cc#/J	.	.	.	.	.	.	.	.	.	.	.	.	.	.	.	.
!	!	!	!	!	!	!	!	!	!	!	!	!	!	!LO:LB:g=original	!	!LO:LB:g=original	!	!	!
=83	=83	=83	=83	=83	=83	=83	=83	=83	=83	=83	=83	=83	=83	=83	=83	=83	=83	=83	=83
4D\	.	.	4dd 4d\	.	1ryy	4D\	-rum	4A\	-rum	4f#\	-rum	4dd\	-rum	4f#/	.	4dd\	.	1ryy	1ryy
4r	.	.	4r	.	.	4r	.	4r	.	4r	.	4r	.	4r	.	4r	.	.	.
!LO:TX:b:i:t=Verte	!	!	!	!	!	!	!	!	!	!	!	!	!	!	!	!	!	!	!
2r	.	.	4r	.	.	2r	.	2r	.	2r	.	2r	.	2r	.	2r	.	.	.
.	.	.	4A/	.	.	.	.	.	.	.	.	.	.	.	.	.	.	.	.
!LO:PB:g=original	!	!	!	!	!	!	!	!	!	!	!	!	!	!	!	!	!	!	!
=84	=84	=84	=84	=84	=84	=84	=84	=84	=84	=84	=84	=84	=84	=84	=84	=84	=84	=84	=84
4r	.	.	4d/	.	1ryy	4r	.	4r	.	4r	.	4r	.	4r	.	4r	.	1ryy	1ryy
*	*	*	*	*	*	*	*ij	*	*ij	*	*ij	*	*ij	*	*	*	*	*	*
!	!	!	!LO:TX:t=P:problem=mixed beam	!	!	!	!	!	!	!	!	!	!	!	!	!	!	!	!
4B\	.	.	8dd\L	.	.	4B\	Sanc-	4B\	Sanc-	4f#\	Sanc-	4dd\	Sanc-	4dd\	.	4ff#\	.	.	.
.	.	.	8d/J	.	.	.	.	.	.	.	.	.	.	.	.	.	.	.	.
4G\	6 5	.	8e/L	.	.	(4G\	-to-	(4B\	-to-	2e\	-to-	(4dd\	-to-	4dd\	.	2ee\	.	.	.
.	.	.	8dd/	.	.	.	.	.	.	.	.	.	.	.	.	.	.	.	.
4A\	.	.	8e/	.	.	4A\)	.	4A\)	.	.	.	4cc#\)	.	4a/	.	.	.	.	.
.	.	.	8cc#/J	.	.	.	.	.	.	.	.	.	.	.	.	.	.	.	.
=85	=85	=85	=85	=85	=85	=85	=85	=85	=85	=85	=85	=85	=85	=85	=85	=85	=85	=85	=85
8D\L	.	.	16f#/LL	.	1ryy	2D\	-rum	2A\	-rum	2f#\	-rum	2dd\	-rum	4f#/	.	4dd\	.	1ryy	1ryy
*	*	*	*	*	*	*	*Xij	*	*Xij	*	*Xij	*	*Xij	*	*	*	*	*	*
.	.	.	16a/	.	.	.	.	.	.	.	.	.	.	.	.	.	.	.	.
8D\	.	.	16f#/	.	.	.	.	.	.	.	.	.	.	.	.	.	.	.	.
.	.	.	16a/JJ	.	.	.	.	.	.	.	.	.	.	.	.	.	.	.	.
8D\	.	.	16f#/LL	.	.	.	.	.	.	.	.	.	.	8f#/L	.	8dd\L	.	.	.
.	.	.	16a/	.	.	.	.	.	.	.	.	.	.	.	.	.	.	.	.
8D\J	.	.	16f#/	.	.	.	.	.	.	.	.	.	.	8f#/J	.	8dd\J	.	.	.
.	.	.	16a/JJ	.	.	.	.	.	.	.	.	.	.	.	.	.	.	.	.
*tremolo	*	*	*tremolo	*	*	*	*	*	*	*	*	*	*	*	*	*	*	*	*
8D\L	.	.	16f#/LL	.	.	2D\	ex	2A\	[[&]] ex	2f#\	ex	2dd\	ex	4f#/	.	4dd\	.	.	.
.	.	.	16a/	.	.	.	.	.	.	.	.	.	.	.	.	.	.	.	.
8D\	.	.	16f#/	.	.	.	.	.	.	.	.	.	.	.	.	.	.	.	.
.	.	.	16a/	.	.	.	.	.	.	.	.	.	.	.	.	.	.	.	.
8D\	.	.	16f#/	.	.	.	.	.	.	.	.	.	.	4f#/	.	4dd\	.	.	.
.	.	.	16a/	.	.	.	.	.	.	.	.	.	.	.	.	.	.	.	.
8D\J	.	.	16f#/	.	.	.	.	.	.	.	.	.	.	.	.	.	.	.	.
.	.	.	16a/JJ	.	.	.	.	.	.	.	.	.	.	.	.	.	.	.	.
*	*	*	*Xtremolo	*	*	*	*	*	*	*	*	*	*	*	*	*	*	*	*
!	!	!	!LO:LB:g=original	!	!	!	!	!	!	!	!	!	!	!	!	!	!	!	!
=86	=86	=86	=86	=86	=86	=86	=86	=86	=86	=86	=86	=86	=86	=86	=86	=86	=86	=86	=86
8D\L	.	.	16f#/LL	.	1ryy	2D\	u-	2A\	u-	2f#\	u-	2dd\	u-	2f#/	.	2dd\	.	1ryy	1ryy
.	.	.	16a/	.	.	.	.	.	.	.	.	.	.	.	.	.	.	.	.
8D\	.	.	16f#/	.	.	.	.	.	.	.	.	.	.	.	.	.	.	.	.
.	.	.	16a/JJ	.	.	.	.	.	.	.	.	.	.	.	.	.	.	.	.
8D\	.	.	16f#/LL	.	.	.	.	.	.	.	.	.	.	.	.	.	.	.	.
.	.	.	16a/	.	.	.	.	.	.	.	.	.	.	.	.	.	.	.	.
8D\J	.	.	16f#/	.	.	.	.	.	.	.	.	.	.	.	.	.	.	.	.
.	.	.	16a/JJ	.	.	.	.	.	.	.	.	.	.	.	.	.	.	.	.
*	*	*	*tremolo	*	*	*	*	*	*	*	*	*	*	*	*	*	*	*	*
8D\L	.	.	16f#/LL	.	.	4D\	-te-	4A\	-te-	4f#\	-te-	4dd\	-te-	4f#/	.	4dd\	.	.	.
.	.	.	16a/	.	.	.	.	.	.	.	.	.	.	.	.	.	.	.	.
8D\	.	.	16f#/	.	.	.	.	.	.	.	.	.	.	.	.	.	.	.	.
.	.	.	16a/	.	.	.	.	.	.	.	.	.	.	.	.	.	.	.	.
8D\	.	.	16f#/	.	.	4D\	-ro	4A\	-ro	4f#\	-ro	4dd\	-ro	4f#/	.	4dd\	.	.	.
.	.	.	16a/	.	.	.	.	.	.	.	.	.	.	.	.	.	.	.	.
8D\J	.	.	16f#/	.	.	.	.	.	.	.	.	.	.	.	.	.	.	.	.
.	.	.	16a/JJ	.	.	.	.	.	.	.	.	.	.	.	.	.	.	.	.
=87	=87	=87	=87	=87	=87	=87	=87	=87	=87	=87	=87	=87	=87	=87	=87	=87	=87	=87	=87
8C#/L	6_ 5_	.	16e/LL	.	1ryy	2C#/	an-	2A\	an-	2g\	an-	2ee\	an-	4a/	.	4ee\	.	1ryy	1ryy
.	.	.	16a/	.	.	.	.	.	.	.	.	.	.	.	.	.	.	.	.
8C#/	.	.	16e/	.	.	.	.	.	.	.	.	.	.	.	.	.	.	.	.
.	.	.	16a/	.	.	.	.	.	.	.	.	.	.	.	.	.	.	.	.
8C#/	.	.	16e/	.	.	.	.	.	.	.	.	.	.	8a/L	.	8ee\L	.	.	.
.	.	.	16a/	.	.	.	.	.	.	.	.	.	.	.	.	.	.	.	.
8C#/J	.	.	16e/	.	.	.	.	.	.	.	.	.	.	8a/J	.	8ee\J	.	.	.
.	.	.	16a/JJ	.	.	.	.	.	.	.	.	.	.	.	.	.	.	.	.
8C#/L	.	.	16e/LL	.	.	4C#/	-te	4A\	-te	4g\	-te	4ee\	-te	4a/	.	4ee\	.	.	.
.	.	.	16a/	.	.	.	.	.	.	.	.	.	.	.	.	.	.	.	.
8C#/	.	.	16e/	.	.	.	.	.	.	.	.	.	.	.	.	.	.	.	.
.	.	.	16a/	.	.	.	.	.	.	.	.	.	.	.	.	.	.	.	.
8C#/	.	.	16e/	.	.	4C#/	lu-	4A\	lu-	4g\	lu-	4ee\	lu-	4a/	.	4ee\	.	.	.
.	.	.	16a/	.	.	.	.	.	.	.	.	.	.	.	.	.	.	.	.
8C#/J	.	.	16e/	.	.	.	.	.	.	.	.	.	.	.	.	.	.	.	.
.	.	.	16a/JJ	.	.	.	.	.	.	.	.	.	.	.	.	.	.	.	.
=88	=88	=88	=88	=88	=88	=88	=88	=88	=88	=88	=88	=88	=88	=88	=88	=88	=88	=88	=88
8C#/L	.	.	16e/LL	.	1ryy	2C#/	-ci-	2A\	-ci-	2g\	-ci-	2ee\	-ci-	2a/	.	2ee\	.	1ryy	1ryy
.	.	.	16a/	.	.	.	.	.	.	.	.	.	.	.	.	.	.	.	.
8C#/	.	.	16e/	.	.	.	.	.	.	.	.	.	.	.	.	.	.	.	.
.	.	.	16a/	.	.	.	.	.	.	.	.	.	.	.	.	.	.	.	.
8C#/	.	.	16e/	.	.	.	.	.	.	.	.	.	.	.	.	.	.	.	.
.	.	.	16a/	.	.	.	.	.	.	.	.	.	.	.	.	.	.	.	.
8C#/J	.	.	16e/	.	.	.	.	.	.	.	.	.	.	.	.	.	.	.	.
.	.	.	16a/JJ	.	.	.	.	.	.	.	.	.	.	.	.	.	.	.	.
8C#/L	.	.	16e/LL	.	.	2C#/	-fe-	2A\	-fe-	2g\	-fe-	2ee\	-fe-	4a/	.	4ee\	.	.	.
.	.	.	16a/	.	.	.	.	.	.	.	.	.	.	.	.	.	.	.	.
8C#/	.	.	16e/	.	.	.	.	.	.	.	.	.	.	.	.	.	.	.	.
.	.	.	16a/	.	.	.	.	.	.	.	.	.	.	.	.	.	.	.	.
8C#/	.	.	16e/	.	.	.	.	.	.	.	.	.	.	4a/	.	4ee\	.	.	.
.	.	.	16a/	.	.	.	.	.	.	.	.	.	.	.	.	.	.	.	.
8C#/J	.	.	16e/	.	.	.	.	.	.	.	.	.	.	.	.	.	.	.	.
.	x x	.	16a/JJ	.	.	.	.	.	.	.	.	.	.	.	.	.	.	.	.
!	!	!	!	!	!	!LO:LB:g=original	!	!LO:LB:g=original	!	!LO:LB:g=original	!	!LO:LB:g=original	!	!	!	!	!	!	!
=89	=89	=89	=89	=89	=89	=89	=89	=89	=89	=89	=89	=89	=89	=89	=89	=89	=89	=89	=89
8D\L	.	.	16f#/LL	.	1ryy	2D\	-rum	2A\	-rum	2f#\	-rum	2dd\	-rum	4f#/	.	4dd\	.	1ryy	1ryy
.	.	.	16a/	.	.	.	.	.	.	.	.	.	.	.	.	.	.	.	.
8D\	.	.	16f#/	.	.	.	.	.	.	.	.	.	.	.	.	.	.	.	.
.	.	.	16a/	.	.	.	.	.	.	.	.	.	.	.	.	.	.	.	.
8D\	.	.	16f#/	.	.	.	.	.	.	.	.	.	.	8f#/L	.	8dd\L	.	.	.
.	.	.	16a/	.	.	.	.	.	.	.	.	.	.	.	.	.	.	.	.
8D\J	.	.	16f#/	.	.	.	.	.	.	.	.	.	.	8f#/J	.	8dd\J	.	.	.
.	.	.	16a/JJ	.	.	.	.	.	.	.	.	.	.	.	.	.	.	.	.
8D\L	.	.	16f#/LL	.	.	2D\	ex	2A\	ex	2f#\	ex	2dd\	ex	4f#/	.	4dd\	.	.	.
.	.	.	16a/	.	.	.	.	.	.	.	.	.	.	.	.	.	.	.	.
8D\	.	.	16f#/	.	.	.	.	.	.	.	.	.	.	.	.	.	.	.	.
.	.	.	16a/	.	.	.	.	.	.	.	.	.	.	.	.	.	.	.	.
8D\	.	.	16f#/	.	.	.	.	.	.	.	.	.	.	4f#/	.	4dd\	.	.	.
.	.	.	16a/	.	.	.	.	.	.	.	.	.	.	.	.	.	.	.	.
8D\J	.	.	16f#/	.	.	.	.	.	.	.	.	.	.	.	.	.	.	.	.
.	.	.	16a/JJ	.	.	.	.	.	.	.	.	.	.	.	.	.	.	.	.
!	!	!	!	!	!	!	!	!	!	!	!	!	!	!LO:LB:g=original	!	!	!	!	!
=90	=90	=90	=90	=90	=90	=90	=90	=90	=90	=90	=90	=90	=90	=90	=90	=90	=90	=90	=90
8D\L	.	.	16f#/LL	.	1ryy	2D\	u-	2A\	u-	2f#\	u-	2dd\	u-	2f#/	.	2dd\	.	1ryy	1ryy
.	.	.	16a/	.	.	.	.	.	.	.	.	.	.	.	.	.	.	.	.
8D\	.	.	16f#/	.	.	.	.	.	.	.	.	.	.	.	.	.	.	.	.
.	.	.	16a/	.	.	.	.	.	.	.	.	.	.	.	.	.	.	.	.
8D\	.	.	16f#/	.	.	.	.	.	.	.	.	.	.	.	.	.	.	.	.
.	.	.	16a/	.	.	.	.	.	.	.	.	.	.	.	.	.	.	.	.
8D\J	.	.	16f#/	.	.	.	.	.	.	.	.	.	.	.	.	.	.	.	.
.	.	.	16a/JJ	.	.	.	.	.	.	.	.	.	.	.	.	.	.	.	.
8D\L	.	.	16f#/LL	.	.	4D\	-te-	4A\	-te-	4f#\	-te-	4dd\	-te-	4f#/	.	4dd\	.	.	.
.	.	.	16a/	.	.	.	.	.	.	.	.	.	.	.	.	.	.	.	.
8D\	.	.	16f#/	.	.	.	.	.	.	.	.	.	.	.	.	.	.	.	.
.	.	.	16a/	.	.	.	.	.	.	.	.	.	.	.	.	.	.	.	.
8D\	.	.	16f#/	.	.	4D\	-ro	4A\	-ro	4f#\	-ro	4dd\	-ro	4f#/	.	4dd\	.	.	.
.	.	.	16a/	.	.	.	.	.	.	.	.	.	.	.	.	.	.	.	.
8D\J	.	.	16f#/	.	.	.	.	.	.	.	.	.	.	.	.	.	.	.	.
.	.	.	16a/JJ	.	.	.	.	.	.	.	.	.	.	.	.	.	.	.	.
*Xtremolo	*	*	*Xtremolo	*	*	*	*	*	*	*	*	*	*	*	*	*	*	*	*
!LO:LB:g=original	!	!	!	!	!	!	!	!	!	!	!	!	!	!	!	!LO:LB:g=original	!	!	!
=91	=91	=91	=91	=91	=91	=91	=91	=91	=91	=91	=91	=91	=91	=91	=91	=91	=91	=91	=91
8C#/L	6_ 5_	.	16e/LL	.	1ryy	2C#/	an-	2A\	an-	2g\	an-	2ee\	an-	4a/	.	4ee\	.	1ryy	1ryy
.	.	.	16a/	.	.	.	.	.	.	.	.	.	.	.	.	.	.	.	.
8C#/	.	.	16e/	.	.	.	.	.	.	.	.	.	.	.	.	.	.	.	.
.	.	.	16a/JJ	.	.	.	.	.	.	.	.	.	.	.	.	.	.	.	.
!	!	!	!LO:LB:g=original	!	!	!	!	!	!	!	!	!	!	!	!	!	!	!	!
8C#/	.	.	16e/LL	.	.	.	.	.	.	.	.	.	.	8a/L	.	8ee\L	.	.	.
.	.	.	16a/	.	.	.	.	.	.	.	.	.	.	.	.	.	.	.	.
8C#/J	.	.	16e/	.	.	.	.	.	.	.	.	.	.	8a/J	.	8ee\J	.	.	.
.	.	.	16a/JJ	.	.	.	.	.	.	.	.	.	.	.	.	.	.	.	.
*tremolo	*	*	*tremolo	*	*	*	*	*	*	*	*	*	*	*	*	*	*	*	*
8C#/L	.	.	16e/LL	.	.	4C#/	-te	4A\	-te	4g\	-te	4ee\	-te	4a/	.	4ee\	.	.	.
.	.	.	16a/	.	.	.	.	.	.	.	.	.	.	.	.	.	.	.	.
8C#/	.	.	16e/	.	.	.	.	.	.	.	.	.	.	.	.	.	.	.	.
.	.	.	16a/	.	.	.	.	.	.	.	.	.	.	.	.	.	.	.	.
8C#/	.	.	16e/	.	.	4C#/	lu-	4A\	lu-	4g\	lu-	4ee\	lu-	4a/	.	4ee\	.	.	.
.	.	.	16a/	.	.	.	.	.	.	.	.	.	.	.	.	.	.	.	.
8C#/J	.	.	16e/	.	.	.	.	.	.	.	.	.	.	.	.	.	.	.	.
.	.	.	16a/JJ	.	.	.	.	.	.	.	.	.	.	.	.	.	.	.	.
=92	=92	=92	=92	=92	=92	=92	=92	=92	=92	=92	=92	=92	=92	=92	=92	=92	=92	=92	=92
8C#/L	.	.	16e/LL	.	1ryy	2C#/	-ci-	2A\	-ci-	2g\	-ci-	2ee\	-ci-	2a/	.	2ee\	.	1ryy	1ryy
.	.	.	16a/	.	.	.	.	.	.	.	.	.	.	.	.	.	.	.	.
8C#/	.	.	16e/	.	.	.	.	.	.	.	.	.	.	.	.	.	.	.	.
.	.	.	16a/	.	.	.	.	.	.	.	.	.	.	.	.	.	.	.	.
8C#/	.	.	16e/	.	.	.	.	.	.	.	.	.	.	.	.	.	.	.	.
.	.	.	16a/	.	.	.	.	.	.	.	.	.	.	.	.	.	.	.	.
8C#/J	.	.	16e/	.	.	.	.	.	.	.	.	.	.	.	.	.	.	.	.
.	.	.	16a/JJ	.	.	.	.	.	.	.	.	.	.	.	.	.	.	.	.
8C#/L	.	.	16e/LL	.	.	2C#/	-fe-	2A\	-fe-	2g\	-fe-	2ee\	-fe-	4a/	.	4ee\	.	.	.
.	.	.	16a/	.	.	.	.	.	.	.	.	.	.	.	.	.	.	.	.
8C#/	.	.	16e/	.	.	.	.	.	.	.	.	.	.	.	.	.	.	.	.
.	.	.	16a/	.	.	.	.	.	.	.	.	.	.	.	.	.	.	.	.
8C#/	.	.	16e/	.	.	.	.	.	.	.	.	.	.	4a/	.	4ee\	.	.	.
.	.	.	16a/	.	.	.	.	.	.	.	.	.	.	.	.	.	.	.	.
8C#/J	.	.	16e/	.	.	.	.	.	.	.	.	.	.	.	.	.	.	.	.
.	x x	.	16a/JJ	.	.	.	.	.	.	.	.	.	.	.	.	.	.	.	.
*	*	*	*Xtremolo	*	*	*	*	*	*	*	*	*	*	*	*	*	*	*	*
=93	=93	=93	=93	=93	=93	=93	=93	=93	=93	=93	=93	=93	=93	=93	=93	=93	=93	=93	=93
8D\L	.	.	16dd\LL	.	1ryy	2D\	-rum	2A\	-rum	2f#\	-rum	2dd\	-rum	4f#/	.	4dd\	.	1ryy	1ryy
.	.	.	16dd\	.	.	.	.	.	.	.	.	.	.	.	.	.	.	.	.
8D\	.	.	16dd\	.	.	.	.	.	.	.	.	.	.	.	.	.	.	.	.
.	.	.	16dd\JJ	.	.	.	.	.	.	.	.	.	.	.	.	.	.	.	.
*	*	*	*tremolo	*	*	*	*	*	*	*	*	*	*	*	*	*	*	*	*
8D\	.	.	16dd\LL	.	.	.	.	.	.	.	.	.	.	8f#/L	.	8dd\L	.	.	.
.	.	.	16dd\	.	.	.	.	.	.	.	.	.	.	.	.	.	.	.	.
8D\J	.	.	16dd\	.	.	.	.	.	.	.	.	.	.	8f#/J	.	8dd\J	.	.	.
.	.	.	16dd\JJ	.	.	.	.	.	.	.	.	.	.	.	.	.	.	.	.
8D\L	.	.	16d/LL	.	.	2D\	ge-	2A\	ge-	2f#\	ge-	2dd\	ge-	4f#/	.	4dd\	.	.	.
.	.	.	16d/	.	.	.	.	.	.	.	.	.	.	.	.	.	.	.	.
8D\	.	.	16d/	.	.	.	.	.	.	.	.	.	.	.	.	.	.	.	.
.	.	.	16d/JJ	.	.	.	.	.	.	.	.	.	.	.	.	.	.	.	.
8D\	.	.	16d/LL	.	.	.	.	.	.	.	.	.	.	4f#/	.	4dd\	.	.	.
.	.	.	16d/	.	.	.	.	.	.	.	.	.	.	.	.	.	.	.	.
8D\J	.	.	16d/	.	.	.	.	.	.	.	.	.	.	.	.	.	.	.	.
.	.	.	16d/JJ	.	.	.	.	.	.	.	.	.	.	.	.	.	.	.	.
=94	=94	=94	=94	=94	=94	=94	=94	=94	=94	=94	=94	=94	=94	=94	=94	=94	=94	=94	=94
8D\L	.	.	16f#/LL	.	1ryy	2D\	-nu-	2A\	-nu-	2f#\	-nu-	2dd\	-nu-	4f#/	.	4dd\	.	1ryy	1ryy
.	.	.	16f#/	.	.	.	.	.	.	.	.	.	.	.	.	.	.	.	.
8D\	.	.	16f#/	.	.	.	.	.	.	.	.	.	.	.	.	.	.	.	.
.	.	.	16f#/JJ	.	.	.	.	.	.	.	.	.	.	.	.	.	.	.	.
8D\	.	.	16f#/LL	.	.	.	.	.	.	.	.	.	.	8f#/L	.	8dd\L	.	.	.
.	.	.	16f#/	.	.	.	.	.	.	.	.	.	.	.	.	.	.	.	.
8D\J	.	.	16f#/	.	.	.	.	.	.	.	.	.	.	8f#/J	.	8dd\J	.	.	.
.	.	.	16f#/JJ	.	.	.	.	.	.	.	.	.	.	.	.	.	.	.	.
8D\L	.	.	16a/LL	.	.	2D\	-i	2A\	-i	2f#\	-i	2dd\	-i	4f#/	.	4dd\	.	.	.
.	.	.	16a/	.	.	.	.	.	.	.	.	.	.	.	.	.	.	.	.
8D\	.	.	16a/	.	.	.	.	.	.	.	.	.	.	.	.	.	.	.	.
.	.	.	16a/JJ	.	.	.	.	.	.	.	.	.	.	.	.	.	.	.	.
8D\	.	.	16a/LL	.	.	.	.	.	.	.	.	.	.	4f#/	.	4dd\	.	.	.
.	.	.	16a/	.	.	.	.	.	.	.	.	.	.	.	.	.	.	.	.
8D\J	.	.	16a/	.	.	.	.	.	.	.	.	.	.	.	.	.	.	.	.
.	.	.	16a/JJ	.	.	.	.	.	.	.	.	.	.	.	.	.	.	.	.
*Xtremolo	*	*	*	*	*	*	*	*	*	*	*	*	*	*	*	*	*	*	*
=95	=95	=95	=95	=95	=95	=95	=95	=95	=95	=95	=95	=95	=95	=95	=95	=95	=95	=95	=95
8D\L	.	.	16d/LL	.	1ryy	4D\	te	4A\	te	4f#\	te	4dd\	te	4d/	.	4dd\	.	1ryy	1ryy
.	.	.	16d/	.	.	.	.	.	.	.	.	.	.	.	.	.	.	.	.
8D\	.	.	16d/	.	.	.	.	.	.	.	.	.	.	.	.	.	.	.	.
.	.	.	16d/JJ	.	.	.	.	.	.	.	.	.	.	.	.	.	.	.	.
8F#'\	.	.	16f#/LL	.	.	4F#\	an-	4F#/	an-	4f#\	an-	4ff#\	an-	4f#/	.	4ff#\	.	.	.
.	.	.	16f#/	.	.	.	.	.	.	.	.	.	.	.	.	.	.	.	.
8F#'\J	.	.	16f#/	.	.	.	.	.	.	.	.	.	.	.	.	.	.	.	.
.	.	.	16f#/JJ	.	.	.	.	.	.	.	.	.	.	.	.	.	.	.	.
8D'\L	.	.	16d/LL	.	.	4D\	-te	4D/	-te	4d\	-te	4dd\	-te	4d/	.	4dd\	.	.	.
.	.	.	16d/	.	.	.	.	.	.	.	.	.	.	.	.	.	.	.	.
8D'\	.	.	16d/	.	.	.	.	.	.	.	.	.	.	.	.	.	.	.	.
.	.	.	16d/JJ	.	.	.	.	.	.	.	.	.	.	.	.	.	.	.	.
8F#'\	.	.	16f#/LL	.	.	4F#\	lu-	4F#/	lu-	4f#\	lu-	4ff#\	lu-	4f#/	.	4ff#\	.	.	.
.	.	.	16f#/	.	.	.	.	.	.	.	.	.	.	.	.	.	.	.	.
8F#'\J	.	.	16f#/	.	.	.	.	.	.	.	.	.	.	.	.	.	.	.	.
.	.	.	16f#/JJ	.	.	.	.	.	.	.	.	.	.	.	.	.	.	.	.
*	*	*	*Xtremolo	*	*	*	*	*	*	*	*	*	*	*	*	*	*	*	*
!	!	!	!LO:LB:g=original	!	!	!LO:LB:g=original	!	!LO:LB:g=original	!	!LO:LB:g=original	!	!LO:LB:g=original	!	!	!	!	!	!	!
=96	=96	=96	=96	=96	=96	=96	=96	=96	=96	=96	=96	=96	=96	=96	=96	=96	=96	=96	=96
8A\L	.	.	16a/LL	.	1ryy	4.A\	-ci-	4.A\	-ci-	4.a\	-ci-	4.aa\	-ci-	4a/	.	4aa\	.	1ryy	1ryy
.	.	.	16a/	.	.	.	.	.	.	.	.	.	.	.	.	.	.	.	.
8A\	.	.	16a/	.	.	.	.	.	.	.	.	.	.	.	.	.	.	.	.
.	.	.	16a/JJ	.	.	.	.	.	.	.	.	.	.	.	.	.	.	.	.
*	*	*	*tremolo	*	*	*	*	*	*	*	*	*	*	*	*	*	*	*	*
8A\	.	.	16a/LL	.	.	.	.	.	.	.	.	.	.	8a/L	.	8aa\L	.	.	.
.	.	.	16a/	.	.	.	.	.	.	.	.	.	.	.	.	.	.	.	.
8A\J	.	.	16a/	.	.	8A\	-fe-	8A\	-fe-	8a\	-fe-	8aa\	-fe-	8a/J	.	8aa\J	.	.	.
.	.	.	16a/JJ	.	.	.	.	.	.	.	.	.	.	.	.	.	.	.	.
8F#\L	.	.	16f#/LL	.	.	4F#\	-rum	4F#/	-rum	4f#\	-rum	4ff#\	-rum	4f#/	.	4ff#\	.	.	.
.	.	.	16f#/	.	.	.	.	.	.	.	.	.	.	.	.	.	.	.	.
8F#\	.	.	16f#/	.	.	.	.	.	.	.	.	.	.	.	.	.	.	.	.
.	.	.	16f#/JJ	.	.	.	.	.	.	.	.	.	.	.	.	.	.	.	.
8D\	.	.	16d/LL	.	.	4D\	ge-	4D/	ge-	4d\	ge-	4dd\	ge-	4d/	.	4dd\	.	.	.
.	.	.	16d/	.	.	.	.	.	.	.	.	.	.	.	.	.	.	.	.
8D\J	.	.	16d/	.	.	.	.	.	.	.	.	.	.	.	.	.	.	.	.
.	.	.	16d/JJ	.	.	.	.	.	.	.	.	.	.	.	.	.	.	.	.
!LO:LB:g=original	!	!	!	!	!	!	!	!	!	!	!	!	!	!LO:LB:g=original	!	!	!	!	!
=97	=97	=97	=97	=97	=97	=97	=97	=97	=97	=97	=97	=97	=97	=97	=97	=97	=97	=97	=97
8A\L	x 4	.	16dd\LL	.	1ryy	2A\	-nu-	2A\	-nu-	2f#\	-nu-	2dd\	-nu-	2dd\	.	2ff#\	.	1ryy	1ryy
.	.	.	16dd\	.	.	.	.	.	.	.	.	.	.	.	.	.	.	.	.
8A\	.	.	16dd\	.	.	.	.	.	.	.	.	.	.	.	.	.	.	.	.
.	.	.	16dd\JJ	.	.	.	.	.	.	.	.	.	.	.	.	.	.	.	.
8A\	.	.	16dd\LL	.	.	.	.	.	.	.	.	.	.	.	.	.	.	.	.
.	.	.	16dd\	.	.	.	.	.	.	.	.	.	.	.	.	.	.	.	.
8A\J	.	.	16dd\	.	.	.	.	.	.	.	.	.	.	.	.	.	.	.	.
.	.	.	16dd\JJ	.	.	.	.	.	.	.	.	.	.	.	.	.	.	.	.
8AA/L	x 3_	.	16cc#\LL	.	.	2AA/	-i	2A\	-i	2e\	-i	2cc#\	-i	2g/	.	2ee\	.	.	.
.	.	.	16cc#\	.	.	.	.	.	.	.	.	.	.	.	.	.	.	.	.
8AA/	.	.	16cc#\	.	.	.	.	.	.	.	.	.	.	.	.	.	.	.	.
.	.	.	16cc#\JJ	.	.	.	.	.	.	.	.	.	.	.	.	.	.	.	.
8AA/	.	.	16cc#\LL	.	.	.	.	.	.	.	.	.	.	.	.	.	.	.	.
.	.	.	16cc#\	.	.	.	.	.	.	.	.	.	.	.	.	.	.	.	.
8AA/J	.	.	16cc#\	.	.	.	.	.	.	.	.	.	.	.	.	.	.	.	.
.	x x	.	16cc#\JJ	.	.	.	.	.	.	.	.	.	.	.	.	.	.	.	.
*	*	*	*Xtremolo	*	*	*	*	*	*	*	*	*	*	*	*	*	*	*	*
!	!	!	!	!	!	!	!	!	!	!	!	!	!	!	!	!LO:LB:g=original	!	!	!
=98	=98	=98	=98	=98	=98	=98	=98	=98	=98	=98	=98	=98	=98	=98	=98	=98	=98	=98	=98
8D\L	.	.	4dd\	.	1ryy	4D\	te	4A\	te	4f#\	te	4dd\	te	4f#/	.	4dd\	.	1ryy	1ryy
8d\	.	.	.	.	.	.	.	.	.	.	.	.	.	.	.	.	.	.	.
8A\	.	.	4dd 4f#\	.	.	4r	.	4r	.	4r	.	4r	.	8f#/L	.	8dd\L	.	.	.
8F#\J	.	.	.	.	.	.	.	.	.	.	.	.	.	8f#/J	.	8dd\J	.	.	.
4D\	.	.	4dd 4f#\	.	.	2r	.	2r	.	2r	.	2r	.	4f#/	.	4dd\	.	.	.
4r	.	.	4r	.	.	.	.	.	.	.	.	.	.	4r	.	4r	.	.	.
!	!	!	!	!	!	!LO:TX:b:i:t=Juravit Tacet	!	!LO:TX:b:i:t=Juravit Tacet.	!	!LO:TX:b:i:t=Juravit Tacet	!	!	!	!LO:TX:b:i:t=Juravit\nJudicabit }Tacet	!	!LO:TX:b:i:t=Juravit \nJudicabit Tacet	!	!	!
==	==	==	==	==	==	==	==	==	==	==	==	==	==	==	==	==	==	==	==
*-	*-	*-	*-	*-	*-	*-	*-	*-	*-	*-	*-	*-	*-	*-	*-	*-	*-	*-	*-
!!!system-decoration: [g1][g2][g3][g4]g5
!!!ENC: Katarzyna Serwa
!!!END: 2022-01-13
!!!ENC: Mateusz Solarz
!!!END: 2020-07-17
!!!YEC: Copyright 2022 Narodowy Instytut Fryderyka Chopina (https://polishscores.org)
!!!YEM: License CC-BY-4.0 (https://creativecommons.org/licenses/by/4.0)
